; G-Code generated by Simplify3D(R) Version 4.1.2
; Dec 13, 2020 at 9:27:12 PM
; Settings Summary
;   processName,Process1
;   applyToModels,scad_chess_bishop,scad_chess_bishop(2)
;   profileName,PLA Left Large - Geeetech A10M (modified)
;   profileVersion,2020-12-13 16:05:15
;   baseProfile,Geeetech A10M
;   printMaterial,PLA
;   printQuality,High
;   printExtruders,Left Extruder Only
;   extruderName,Right Extruder,Left Extruder,Mix Extruder
;   extruderToolheadNumber,0,1,2
;   extruderDiameter,0.4,0.4,0.4
;   extruderAutoWidth,0,0,0
;   extruderWidth,0.4,0.4,0.6
;   extrusionMultiplier,1,1,1
;   extruderUseRetract,1,1,1
;   extruderRetractionDistance,6,6,8
;   extruderExtraRestartDistance,0,0,0
;   extruderRetractionZLift,0,0,0
;   extruderRetractionSpeed,1800,1800,1800
;   extruderUseCoasting,0,0,1
;   extruderCoastingDistance,0.2,0.2,0.2
;   extruderUseWipe,0,0,1
;   extruderWipeDistance,5,5,5
;   primaryExtruder,1
;   layerHeight,0.3
;   topSolidLayers,3
;   bottomSolidLayers,3
;   perimeterOutlines,3
;   printPerimetersInsideOut,1
;   startPointOption,2
;   startPointOriginX,0
;   startPointOriginY,0
;   sequentialIslands,0
;   spiralVaseMode,0
;   firstLayerHeightPercentage,100
;   firstLayerWidthPercentage,125
;   firstLayerUnderspeed,0.4
;   useRaft,0
;   raftExtruder,1
;   raftTopLayers,3
;   raftBaseLayers,2
;   raftOffset,0.6
;   raftSeparationDistance,0.14
;   raftTopInfill,100
;   aboveRaftSpeedMultiplier,0.3
;   useSkirt,1
;   skirtExtruder,1
;   skirtLayers,1
;   skirtOutlines,1
;   skirtOffset,2
;   usePrimePillar,0
;   primePillarExtruder,999
;   primePillarWidth,15
;   primePillarLocation,7
;   primePillarSpeedMultiplier,1
;   useOozeShield,0
;   oozeShieldExtruder,999
;   oozeShieldOffset,2
;   oozeShieldOutlines,1
;   oozeShieldSidewallShape,1
;   oozeShieldSidewallAngle,30
;   oozeShieldSpeedMultiplier,1
;   infillExtruder,1
;   internalInfillPattern,Fast Honeycomb
;   externalInfillPattern,Rectilinear
;   infillPercentage,40
;   outlineOverlapPercentage,60
;   infillExtrusionWidthPercentage,100
;   minInfillLength,5
;   infillLayerInterval,1
;   internalInfillAngles,0
;   overlapInternalInfillAngles,0
;   externalInfillAngles,45,-45
;   generateSupport,1
;   supportExtruder,1
;   supportInfillPercentage,40
;   supportExtraInflation,0
;   supportBaseLayers,0
;   denseSupportExtruder,1
;   denseSupportLayers,0
;   denseSupportInfillPercentage,70
;   supportLayerInterval,1
;   supportHorizontalPartOffset,0.3
;   supportUpperSeparationLayers,1
;   supportLowerSeparationLayers,1
;   supportType,0
;   supportGridSpacing,4
;   maxOverhangAngle,45
;   supportAngles,0
;   temperatureName,Shared Heater,Heated Bed
;   temperatureNumber,0,0
;   temperatureSetpointCount,2,1
;   temperatureSetpointLayers,1,2,1
;   temperatureSetpointTemperatures,215,210,75
;   temperatureStabilizeAtStartup,1,0
;   temperatureHeatedBed,0,1
;   fanLayers,1,2
;   fanSpeeds,0,100
;   blipFanToFullPower,0
;   adjustSpeedForCooling,1
;   minSpeedLayerTime,15
;   minCoolingSpeedSlowdown,20
;   increaseFanForCooling,0
;   minFanLayerTime,45
;   maxCoolingFanSpeed,100
;   increaseFanForBridging,0
;   bridgingFanSpeed,100
;   use5D,1
;   relativeEdistances,0
;   allowEaxisZeroing,1
;   independentExtruderAxes,0
;   includeM10123,0
;   stickySupport,1
;   applyToolheadOffsets,0
;   gcodeXoffset,0
;   gcodeYoffset,0
;   gcodeZoffset,0
;   overrideMachineDefinition,1
;   machineTypeOverride,0
;   strokeXoverride,220
;   strokeYoverride,220
;   strokeZoverride,260
;   originOffsetXoverride,0
;   originOffsetYoverride,0
;   originOffsetZoverride,0
;   homeXdirOverride,-1
;   homeYdirOverride,-1
;   homeZdirOverride,-1
;   flipXoverride,1
;   flipYoverride,-1
;   flipZoverride,1
;   toolheadOffsets,0,0|0,0|0,0|0,0|0,0|0,0
;   overrideFirmwareConfiguration,1
;   firmwareTypeOverride,RepRap (Marlin/Repetier/Sprinter)
;   GPXconfigOverride,r2
;   baudRateOverride,250000
;   overridePrinterModels,1
;   printerModelsOverride
;   startingGcode,M140 S[bed0_temperature],G28 ; home all axes,G29,M109 S[extruder0_temperature],M205 X10 Y10 ; set XY jerk to 10,M163 S0 P0.0,M163 S1 P1.0,M164 S1 ; set T1 mixing ratio to full left,T1 ; select extruder,G1 X15 Y10 Z0.3 F3000 ; avoid binder clips,G1 X195 E15 F500 ; prime line,G1 X205 F100 ; slow wipe
;   layerChangeGcode,
;   retractionGcode,
;   toolChangeGcode,G92 E0 ; zero extruded length,G1 E-[toolchange_retract_distance] F[toolchange_retract_speed] ; retract,G92 E0 ; zero extruded length,G1 X[next_position_x] Y[next_position_y] F[travel_speed] ; move to ooze shield or prime pillar,G1 E[toolchange_prime_distance] F[toolchange_retract_speed] ; unretract,G92 E0 ; zero extruded length,T[new_tool] ; perform toolchange
;   endingGcode,G91 ; use relative coordinates for jogging,G1 Z50 F1800 ; raise Z by 50mm at 1800 mm/min,G90 ; switch back to absolute coordinates,M104 S0 ; turn off extruder,M140 S0 ; turn off bed,M84 ; disable motors,
;   exportFileFormat,gcode
;   celebration,0
;   celebrationSong,Random Song
;   postProcessing,
;   defaultSpeed,3000
;   outlineUnderspeed,0.5
;   solidInfillUnderspeed,0.8
;   supportUnderspeed,0.8
;   rapidXYspeed,4800
;   rapidZspeed,1002
;   minBridgingArea,50
;   bridgingExtraInflation,0
;   bridgingExtrusionMultiplier,1
;   bridgingSpeedMultiplier,1
;   useFixedBridgingAngle,0
;   fixedBridgingAngle,0
;   applyBridgingToPerimeters,0
;   filamentDiameters,1.75|1.75|1.75|1.75|1.75|1.75
;   filamentPricesPerKg,46|46|46|46|46|46
;   filamentDensities,1.25|1.25|1.25|1.25|1.25|1.25
;   useMinPrintHeight,0
;   minPrintHeight,0
;   useMaxPrintHeight,0
;   maxPrintHeight,0
;   useDiaphragm,0
;   diaphragmLayerInterval,20
;   robustSlicing,1
;   mergeAllIntoSolid,0
;   onlyRetractWhenCrossingOutline,1
;   retractBetweenLayers,1
;   useRetractionMinTravel,0
;   retractionMinTravel,3
;   retractWhileWiping,0
;   onlyWipeOutlines,1
;   avoidCrossingOutline,0
;   maxMovementDetourFactor,3
;   toolChangeRetractionDistance,8
;   toolChangeExtraRestartDistance,0
;   toolChangeRetractionSpeed,1800
;   externalThinWallType,0
;   internalThinWallType,2
;   thinWallAllowedOverlapPercentage,10
;   singleExtrusionMinLength,1
;   singleExtrusionMinPrintingWidthPercentage,50
;   singleExtrusionMaxPrintingWidthPercentage,200
;   singleExtrusionEndpointExtension,0.2
;   horizontalSizeCompensation,0
G90
M82
M106 S0
M140 S75
G28 ; home all axes
G29
M109 S215
M205 X10 Y10 ; set XY jerk to 10
M163 S0 P0.0
M163 S1 P1.0
M164 S1 ; set T1 mixing ratio to full left
T1 ; select extruder
G1 X15 Y10 Z0.3 F3000 ; avoid binder clips
G1 X195 E15 F500 ; prime line
G1 X205 F100 ; slow wipe
; process Process1
; layer 1, Z = 0.300
G92 E0 ; zero extruded length
G1 E-8.0000 F1800 ; retract
G92 E0 ; zero extruded length
G1 X97.475 Y83.151 F4800 ; move to ooze shield or prime pillar
G1 E8.0000 F1800 ; unretract
G92 E0 ; zero extruded length
T1 ; perform toolchange
G92 E0.0000
G1 E-6.0000 F1800
; feature skirt
; tool H0.300 W0.500
G1 Z0.300 F1002
G1 X97.475 Y83.151 F4800
G1 E0.0000 F1800
G92 E0.0000
G1 X98.472 Y82.052 E0.0926 F1200
G1 X98.550 Y81.974 E0.0994
G1 X99.650 Y80.977 E0.1920
G1 X99.735 Y80.907 E0.1989
G1 X100.927 Y80.023 E0.2915
G1 X101.019 Y79.961 E0.2983
G1 X102.292 Y79.198 E0.3909
G1 X102.389 Y79.146 E0.3978
G1 X103.731 Y78.512 E0.4903
G1 X103.833 Y78.469 E0.4972
G1 X105.231 Y77.969 E0.5898
G1 X105.336 Y77.937 E0.5967
G1 X106.776 Y77.577 E0.6892
G1 X106.884 Y77.555 E0.6961
G1 X108.352 Y77.337 E0.7887
G1 X108.462 Y77.326 E0.7956
G1 X109.945 Y77.254 E0.8881
G1 X110.055 Y77.254 E0.8950
G1 X111.538 Y77.326 E0.9876
G1 X111.648 Y77.337 E0.9945
G1 X113.116 Y77.555 E1.0870
G1 X113.224 Y77.577 E1.0939
G1 X114.664 Y77.937 E1.1865
G1 X114.769 Y77.969 E1.1934
G1 X116.167 Y78.469 E1.2859
G1 X116.269 Y78.512 E1.2928
G1 X117.611 Y79.146 E1.3854
G1 X117.708 Y79.198 E1.3923
G1 X118.981 Y79.961 E1.4848
G1 X119.073 Y80.023 E1.4917
G1 X120.265 Y80.907 E1.5843
G1 X120.350 Y80.977 E1.5912
G1 X121.450 Y81.974 E1.6837
G1 X121.528 Y82.052 E1.6906
G1 X122.525 Y83.151 E1.7832
G1 X122.595 Y83.237 E1.7901
G1 X123.479 Y84.429 E1.8826
G1 X123.541 Y84.521 E1.8895
G1 X124.304 Y85.794 E1.9821
G1 X124.356 Y85.891 E1.9889
G1 X124.990 Y87.233 E2.0815
G1 X125.033 Y87.335 E2.0884
G1 X125.533 Y88.732 E2.1810
G1 X125.565 Y88.838 E2.1878
G1 X125.925 Y90.278 E2.2804
G1 X125.947 Y90.386 E2.2873
G1 X126.165 Y91.854 E2.3798
G1 X126.175 Y91.964 E2.3867
G1 X126.248 Y93.447 E2.4793
G1 X126.248 Y93.557 E2.4862
G1 X126.175 Y95.039 E2.5787
G1 X126.165 Y95.149 E2.5856
G1 X125.947 Y96.618 E2.6782
G1 X125.925 Y96.726 E2.6851
G1 X125.565 Y98.165 E2.7776
G1 X125.533 Y98.271 E2.7845
G1 X125.033 Y99.669 E2.8771
G1 X124.990 Y99.771 E2.8840
G1 X124.356 Y101.112 E2.9765
G1 X124.304 Y101.210 E2.9834
G1 X123.541 Y102.483 E3.0760
G1 X123.479 Y102.575 E3.0829
G1 X122.595 Y103.767 E3.1754
G1 X122.525 Y103.852 E3.1823
G1 X121.528 Y104.952 E3.2749
G1 X121.450 Y105.030 E3.2818
G1 X120.350 Y106.027 E3.3743
G1 X120.265 Y106.097 E3.3812
G1 X119.073 Y106.981 E3.4738
G1 X118.981 Y107.042 E3.4807
G1 X117.708 Y107.805 E3.5732
G1 X117.611 Y107.857 E3.5801
G1 X116.269 Y108.492 E3.6727
G1 X116.167 Y108.534 E3.6796
G1 X114.769 Y109.034 E3.7721
G1 X114.664 Y109.066 E3.7790
G1 X113.224 Y109.427 E3.8715
G1 X113.116 Y109.449 E3.8784
G1 X111.648 Y109.666 E3.9710
G1 X111.538 Y109.677 E3.9779
G1 X110.055 Y109.750 E4.0704
G1 X109.945 Y109.750 E4.0773
G1 X108.462 Y109.677 E4.1699
G1 X108.352 Y109.666 E4.1768
G1 X106.884 Y109.449 E4.2693
G1 X106.776 Y109.427 E4.2762
G1 X105.336 Y109.066 E4.3688
G1 X105.231 Y109.034 E4.3757
G1 X103.833 Y108.534 E4.4682
G1 X103.731 Y108.492 E4.4751
G1 X102.389 Y107.857 E4.5677
G1 X102.292 Y107.805 E4.5746
G1 X101.019 Y107.042 E4.6671
G1 X100.927 Y106.981 E4.6740
G1 X99.735 Y106.097 E4.7666
G1 X99.650 Y106.027 E4.7735
G1 X98.550 Y105.030 E4.8660
G1 X98.472 Y104.952 E4.8729
G1 X97.475 Y103.852 E4.9655
G1 X97.405 Y103.767 E4.9724
G1 X96.521 Y102.575 E5.0649
G1 X96.459 Y102.483 E5.0718
G1 X95.696 Y101.210 E5.1644
G1 X95.644 Y101.112 E5.1712
G1 X95.010 Y99.771 E5.2638
G1 X94.967 Y99.669 E5.2707
G1 X94.467 Y98.271 E5.3633
G1 X94.435 Y98.165 E5.3701
G1 X94.075 Y96.726 E5.4627
G1 X94.053 Y96.618 E5.4696
G1 X93.835 Y95.149 E5.5622
G1 X93.825 Y95.039 E5.5690
G1 X93.752 Y93.557 E5.6616
G1 X93.752 Y93.447 E5.6685
G1 X93.825 Y91.964 E5.7610
G1 X93.835 Y91.854 E5.7679
G1 X94.053 Y90.386 E5.8605
G1 X94.075 Y90.278 E5.8674
G1 X94.435 Y88.838 E5.9599
G1 X94.467 Y88.732 E5.9668
G1 X94.967 Y87.335 E6.0594
G1 X95.010 Y87.233 E6.0663
G1 X95.644 Y85.891 E6.1588
G1 X95.696 Y85.794 E6.1657
G1 X96.459 Y84.521 E6.2583
G1 X96.521 Y84.429 E6.2652
G1 X97.405 Y83.237 E6.3577
G1 X97.475 Y83.151 E6.3646
G92 E0.0000
G1 E-6.0000 F1800
G1 X105.336 Y110.934 F4800
G1 E0.0000 F1800
G92 E0.0000
G1 X106.776 Y110.573 E0.0926 F1200
G1 X106.884 Y110.551 E0.0994
G1 X108.352 Y110.334 E0.1920
G1 X108.462 Y110.323 E0.1989
G1 X109.945 Y110.250 E0.2915
G1 X110.055 Y110.250 E0.2983
G1 X111.538 Y110.323 E0.3909
G1 X111.648 Y110.334 E0.3978
G1 X113.116 Y110.551 E0.4903
G1 X113.224 Y110.573 E0.4972
G1 X114.664 Y110.934 E0.5898
G1 X114.769 Y110.966 E0.5967
G1 X116.167 Y111.466 E0.6892
G1 X116.269 Y111.508 E0.6961
G1 X117.611 Y112.143 E0.7887
G1 X117.708 Y112.195 E0.7956
G1 X118.981 Y112.958 E0.8881
G1 X119.073 Y113.019 E0.8950
G1 X120.265 Y113.903 E0.9876
G1 X120.350 Y113.973 E0.9945
G1 X121.450 Y114.970 E1.0870
G1 X121.528 Y115.048 E1.0939
G1 X122.525 Y116.148 E1.1865
G1 X122.595 Y116.233 E1.1934
G1 X123.479 Y117.425 E1.2859
G1 X123.541 Y117.517 E1.2928
G1 X124.304 Y118.790 E1.3854
G1 X124.356 Y118.888 E1.3923
G1 X124.990 Y120.229 E1.4848
G1 X125.033 Y120.331 E1.4917
G1 X125.533 Y121.729 E1.5843
G1 X125.565 Y121.834 E1.5912
G1 X125.925 Y123.274 E1.6837
G1 X125.947 Y123.382 E1.6906
G1 X126.165 Y124.851 E1.7832
G1 X126.175 Y124.961 E1.7900
G1 X126.248 Y126.443 E1.8826
G1 X126.248 Y126.553 E1.8895
G1 X126.175 Y128.036 E1.9821
G1 X126.165 Y128.146 E1.9889
G1 X125.947 Y129.614 E2.0815
G1 X125.925 Y129.722 E2.0884
G1 X125.565 Y131.162 E2.1809
G1 X125.533 Y131.268 E2.1878
G1 X125.033 Y132.665 E2.2804
G1 X124.990 Y132.767 E2.2873
G1 X124.356 Y134.109 E2.3798
G1 X124.304 Y134.206 E2.3867
G1 X123.541 Y135.479 E2.4793
G1 X123.479 Y135.571 E2.4862
G1 X122.595 Y136.763 E2.5787
G1 X122.525 Y136.849 E2.5856
G1 X121.528 Y137.948 E2.6782
G1 X121.450 Y138.026 E2.6851
G1 X120.350 Y139.023 E2.7776
G1 X120.265 Y139.093 E2.7845
G1 X119.073 Y139.977 E2.8771
G1 X118.981 Y140.039 E2.8840
G1 X117.708 Y140.802 E2.9765
G1 X117.611 Y140.854 E2.9834
G1 X116.269 Y141.488 E3.0760
G1 X116.167 Y141.531 E3.0829
G1 X114.769 Y142.031 E3.1754
G1 X114.664 Y142.063 E3.1823
G1 X113.224 Y142.423 E3.2749
G1 X113.116 Y142.445 E3.2818
G1 X111.648 Y142.663 E3.3743
G1 X111.538 Y142.674 E3.3812
G1 X110.055 Y142.746 E3.4738
G1 X109.945 Y142.746 E3.4806
G1 X108.462 Y142.674 E3.5732
G1 X108.352 Y142.663 E3.5801
G1 X106.884 Y142.445 E3.6727
G1 X106.776 Y142.423 E3.6795
G1 X105.336 Y142.063 E3.7721
G1 X105.231 Y142.031 E3.7790
G1 X103.833 Y141.531 E3.8715
G1 X103.731 Y141.488 E3.8784
G1 X102.389 Y140.854 E3.9710
G1 X102.292 Y140.802 E3.9779
G1 X101.019 Y140.039 E4.0704
G1 X100.927 Y139.977 E4.0773
G1 X99.735 Y139.093 E4.1699
G1 X99.650 Y139.023 E4.1768
G1 X98.550 Y138.026 E4.2693
G1 X98.472 Y137.948 E4.2762
G1 X97.475 Y136.849 E4.3688
G1 X97.405 Y136.763 E4.3757
G1 X96.521 Y135.571 E4.4682
G1 X96.459 Y135.479 E4.4751
G1 X95.696 Y134.206 E4.5677
G1 X95.644 Y134.109 E4.5746
G1 X95.010 Y132.767 E4.6671
G1 X94.967 Y132.665 E4.6740
G1 X94.467 Y131.268 E4.7666
G1 X94.435 Y131.162 E4.7735
G1 X94.075 Y129.722 E4.8660
G1 X94.053 Y129.614 E4.8729
G1 X93.835 Y128.146 E4.9655
G1 X93.825 Y128.036 E4.9724
G1 X93.752 Y126.553 E5.0649
G1 X93.752 Y126.443 E5.0718
G1 X93.825 Y124.961 E5.1644
G1 X93.835 Y124.851 E5.1713
G1 X94.053 Y123.382 E5.2638
G1 X94.075 Y123.274 E5.2707
G1 X94.435 Y121.834 E5.3633
G1 X94.467 Y121.729 E5.3701
G1 X94.967 Y120.331 E5.4627
G1 X95.010 Y120.229 E5.4696
G1 X95.644 Y118.888 E5.5622
G1 X95.696 Y118.790 E5.5690
G1 X96.459 Y117.517 E5.6616
G1 X96.521 Y117.425 E5.6685
G1 X97.405 Y116.233 E5.7610
G1 X97.475 Y116.148 E5.7679
G1 X98.472 Y115.048 E5.8605
G1 X98.550 Y114.970 E5.8674
G1 X99.650 Y113.973 E5.9599
G1 X99.735 Y113.903 E5.9668
G1 X100.927 Y113.019 E6.0594
G1 X101.019 Y112.958 E6.0663
G1 X102.292 Y112.195 E6.1588
G1 X102.389 Y112.143 E6.1657
G1 X103.731 Y111.508 E6.2583
G1 X103.833 Y111.466 E6.2652
G1 X105.231 Y110.966 E6.3577
G1 X105.336 Y110.934 E6.3646
G92 E0.0000
G1 E-6.0000 F1800
; feature inner perimeter
G1 X106.300 Y105.700 F4800
G1 E0.0000 F1800
G92 E0.0000
G1 X105.122 Y105.278 E0.0780 F900
G1 X103.991 Y104.743 E0.1560
G1 X102.918 Y104.100 E0.2340
G1 X101.914 Y103.355 E0.3120
G1 X100.987 Y102.515 E0.3900
G1 X100.147 Y101.588 E0.4681
G1 X99.401 Y100.583 E0.5461
G1 X98.758 Y99.510 E0.6241
G1 X98.223 Y98.380 E0.7021
G1 X97.802 Y97.202 E0.7801
G1 X97.498 Y95.989 E0.8581
G1 X97.315 Y94.751 E0.9361
G1 X97.253 Y93.502 E1.0141
G1 X97.315 Y92.252 E1.0921
G1 X97.498 Y91.015 E1.1702
G1 X97.802 Y89.802 E1.2482
G1 X98.223 Y88.624 E1.3262
G1 X98.758 Y87.493 E1.4042
G1 X99.402 Y86.420 E1.4822
G1 X100.147 Y85.415 E1.5602
G1 X100.987 Y84.489 E1.6382
G1 X101.914 Y83.648 E1.7162
G1 X102.918 Y82.903 E1.7942
G1 X103.991 Y82.260 E1.8722
G1 X105.122 Y81.725 E1.9503
G1 X106.300 Y81.304 E2.0282
G1 X107.513 Y81.000 E2.1062
G1 X108.751 Y80.816 E2.1843
G1 X110.000 Y80.755 E2.2623
G1 X111.249 Y80.816 E2.3403
G1 X112.487 Y81.000 E2.4183
G1 X113.700 Y81.304 E2.4963
G1 X114.878 Y81.725 E2.5743
G1 X116.009 Y82.260 E2.6523
