; G-Code generated by Simplify3D(R) Version 4.1.2
; Jan 19, 2021 at 9:47:59 PM
; Settings Summary
;   processName,Process1
;   applyToModels,xyzCalibration_cube
;   profileName,PLA Left Large - Geeetech A10M
;   profileVersion,2021-01-19 21:47:04
;   baseProfile,Geeetech A10M
;   printMaterial,PLA
;   printQuality,High
;   printExtruders,Left Extruder Only
;   extruderName,Right Extruder,Left Extruder,Mix Extruder
;   extruderToolheadNumber,0,1,2
;   extruderDiameter,0.4,0.4,0.4
;   extruderAutoWidth,1,1,0
;   extruderWidth,0.48,0.48,0.6
;   extrusionMultiplier,1,1,1
;   extruderUseRetract,1,1,1
;   extruderRetractionDistance,6,6,8
;   extruderExtraRestartDistance,0,0,0
;   extruderRetractionZLift,0,0,0
;   extruderRetractionSpeed,1800,1800,1800
;   extruderUseCoasting,0,0,1
;   extruderCoastingDistance,0.2,0.2,0.4
;   extruderUseWipe,0,0,1
;   extruderWipeDistance,5,5,5
;   primaryExtruder,1
;   layerHeight,0.3
;   topSolidLayers,3
;   bottomSolidLayers,3
;   perimeterOutlines,3
;   printPerimetersInsideOut,1
;   startPointOption,2
;   startPointOriginX,0
;   startPointOriginY,0
;   sequentialIslands,0
;   spiralVaseMode,0
;   firstLayerHeightPercentage,100
;   firstLayerWidthPercentage,125
;   firstLayerUnderspeed,0.4
;   useRaft,0
;   raftExtruder,1
;   raftTopLayers,3
;   raftBaseLayers,2
;   raftOffset,0.6
;   raftSeparationDistance,0.14
;   raftTopInfill,100
;   aboveRaftSpeedMultiplier,0.3
;   useSkirt,1
;   skirtExtruder,1
;   skirtLayers,1
;   skirtOutlines,1
;   skirtOffset,2
;   usePrimePillar,0
;   primePillarExtruder,999
;   primePillarWidth,15
;   primePillarLocation,7
;   primePillarSpeedMultiplier,1
;   useOozeShield,0
;   oozeShieldExtruder,999
;   oozeShieldOffset,2
;   oozeShieldOutlines,1
;   oozeShieldSidewallShape,1
;   oozeShieldSidewallAngle,30
;   oozeShieldSpeedMultiplier,1
;   infillExtruder,1
;   internalInfillPattern,Fast Honeycomb
;   externalInfillPattern,Rectilinear
;   infillPercentage,20
;   outlineOverlapPercentage,60
;   infillExtrusionWidthPercentage,100
;   minInfillLength,5
;   infillLayerInterval,1
;   internalInfillAngles,0
;   overlapInternalInfillAngles,0
;   externalInfillAngles,45,-45
;   generateSupport,0
;   supportExtruder,1
;   supportInfillPercentage,40
;   supportExtraInflation,0
;   supportBaseLayers,0
;   denseSupportExtruder,1
;   denseSupportLayers,0
;   denseSupportInfillPercentage,70
;   supportLayerInterval,1
;   supportHorizontalPartOffset,0.3
;   supportUpperSeparationLayers,1
;   supportLowerSeparationLayers,1
;   supportType,0
;   supportGridSpacing,4
;   maxOverhangAngle,45
;   supportAngles,0
;   temperatureName,Shared Heater,Heated Bed
;   temperatureNumber,0,0
;   temperatureSetpointCount,2,1
;   temperatureSetpointLayers,1,2,1
;   temperatureSetpointTemperatures,225,220,75
;   temperatureStabilizeAtStartup,1,0
;   temperatureHeatedBed,0,1
;   fanLayers,1,2
;   fanSpeeds,0,100
;   blipFanToFullPower,0
;   adjustSpeedForCooling,1
;   minSpeedLayerTime,15
;   minCoolingSpeedSlowdown,20
;   increaseFanForCooling,0
;   minFanLayerTime,45
;   maxCoolingFanSpeed,100
;   increaseFanForBridging,0
;   bridgingFanSpeed,100
;   use5D,1
;   relativeEdistances,0
;   allowEaxisZeroing,1
;   independentExtruderAxes,0
;   includeM10123,0
;   stickySupport,1
;   applyToolheadOffsets,0
;   gcodeXoffset,0
;   gcodeYoffset,0
;   gcodeZoffset,0
;   overrideMachineDefinition,1
;   machineTypeOverride,0
;   strokeXoverride,220
;   strokeYoverride,220
;   strokeZoverride,260
;   originOffsetXoverride,0
;   originOffsetYoverride,0
;   originOffsetZoverride,0
;   homeXdirOverride,-1
;   homeYdirOverride,-1
;   homeZdirOverride,-1
;   flipXoverride,1
;   flipYoverride,-1
;   flipZoverride,1
;   toolheadOffsets,0,0|0,0|0,0|0,0|0,0|0,0
;   overrideFirmwareConfiguration,1
;   firmwareTypeOverride,RepRap (Marlin/Repetier/Sprinter)
;   GPXconfigOverride,r2
;   baudRateOverride,250000
;   overridePrinterModels,1
;   printerModelsOverride
;   startingGcode,M140 S[bed0_temperature],G28 ; home all axes,G29,M109 S[extruder0_temperature],M205 X10 Y10 ; set XY jerk to 10,M163 S0 P0.0,M163 S1 P1.0,M164 S1 ; set T1 mixing ratio to full left,T1 ; select extruder,G1 X15 Y10 Z0.3 F3000 ; avoid binder clips,G1 X195 E15 F500 ; prime line,G1 X205 F100 ; slow wipe
;   layerChangeGcode,
;   retractionGcode,
;   toolChangeGcode,G92 E0 ; zero extruded length,G1 E-[toolchange_retract_distance] F[toolchange_retract_speed] ; retract,G92 E0 ; zero extruded length,G1 X[next_position_x] Y[next_position_y] F[travel_speed] ; move to ooze shield or prime pillar,G1 E[toolchange_prime_distance] F[toolchange_retract_speed] ; unretract,G92 E0 ; zero extruded length,T[new_tool] ; perform toolchange
;   endingGcode,G91 ; use relative coordinates for jogging,G1 Z50 F1800 ; raise Z by 50mm at 1800 mm/min,G90 ; switch back to absolute coordinates,M104 S0 ; turn off extruder,M140 S0 ; turn off bed,M84 ; disable motors,
;   exportFileFormat,gcode
;   celebration,0
;   celebrationSong,Random Song
;   postProcessing,
;   defaultSpeed,3000
;   outlineUnderspeed,0.5
;   solidInfillUnderspeed,0.8
;   supportUnderspeed,0.8
;   rapidXYspeed,4800
;   rapidZspeed,1002
;   minBridgingArea,50
;   bridgingExtraInflation,0
;   bridgingExtrusionMultiplier,1
;   bridgingSpeedMultiplier,1
;   useFixedBridgingAngle,0
;   fixedBridgingAngle,0
;   applyBridgingToPerimeters,0
;   filamentDiameters,1.75|1.75|1.75|1.75|1.75|1.75
;   filamentPricesPerKg,46|46|46|46|46|46
;   filamentDensities,1.25|1.25|1.25|1.25|1.25|1.25
;   useMinPrintHeight,0
;   minPrintHeight,0
;   useMaxPrintHeight,0
;   maxPrintHeight,0
;   useDiaphragm,0
;   diaphragmLayerInterval,20
;   robustSlicing,1
;   mergeAllIntoSolid,0
;   onlyRetractWhenCrossingOutline,1
;   retractBetweenLayers,1
;   useRetractionMinTravel,0
;   retractionMinTravel,3
;   retractWhileWiping,0
;   onlyWipeOutlines,1
;   avoidCrossingOutline,0
;   maxMovementDetourFactor,3
;   toolChangeRetractionDistance,8
;   toolChangeExtraRestartDistance,0
;   toolChangeRetractionSpeed,1800
;   externalThinWallType,0
;   internalThinWallType,2
;   thinWallAllowedOverlapPercentage,10
;   singleExtrusionMinLength,1
;   singleExtrusionMinPrintingWidthPercentage,50
;   singleExtrusionMaxPrintingWidthPercentage,200
;   singleExtrusionEndpointExtension,0.2
;   horizontalSizeCompensation,0
G90
M82
M106 S0
M140 S75
G28 ; home all axes
G29
M109 S225
M205 X10 Y10 ; set XY jerk to 10
M163 S0 P0.0
M163 S1 P1.0
M164 S1 ; set T1 mixing ratio to full left
T1 ; select extruder
G1 X15 Y10 Z0.3 F3000 ; avoid binder clips
G1 X195 E15 F500 ; prime line
G1 X205 F100 ; slow wipe
; process Process1
; layer 1, Z = 0.300
G92 E0 ; zero extruded length
G1 E-8.0000 F1800 ; retract
G92 E0 ; zero extruded length
G1 X95.241 Y25.240 F4800 ; move to ooze shield or prime pillar
G1 E8.0000 F1800 ; unretract
G92 E0 ; zero extruded length
T1 ; perform toolchange
G92 E0.0000
G1 E-6.0000 F1800
; feature skirt
; tool H0.300 W0.600
G1 Z0.300 F1002
G1 X95.241 Y25.240 F4800
G1 E0.0000 F1800
G92 E0.0000
G1 X96.589 Y23.893 E0.1426 F1200
G1 X118.494 Y23.893 E1.7819
G1 X119.841 Y25.240 E1.9245
G1 X119.841 Y47.145 E3.5638
G1 X118.494 Y48.493 E3.7064
G1 X96.589 Y48.493 E5.3457
G1 X95.241 Y47.145 E5.4882
G1 X95.241 Y25.240 E7.1275
G92 E0.0000
G1 E-6.0000 F1800
; feature inner perimeter
G1 X99.041 Y27.693 F4800
G1 E0.0000 F1800
G92 E0.0000
G1 X116.041 Y27.693 E1.2722 F900
G1 X116.041 Y44.693 E2.5444
G1 X99.041 Y44.693 E3.8166
G1 X99.041 Y27.693 E5.0888
G1 X98.441 Y27.093 F4800
G92 E0.0000
G1 X116.641 Y27.093 E1.3620 F900
G1 X116.641 Y45.293 E2.7240
G1 X98.441 Y45.293 E4.0860
G1 X98.441 Y27.093 E5.4480
; feature outer perimeter
G1 X97.841 Y26.493 F4800
G92 E0.0000
G1 X117.241 Y26.493 E1.4518 F600
G1 X117.241 Y45.893 E2.9036
G1 X97.841 Y45.893 E4.3554
G1 X97.841 Y26.493 E5.8072
; feature solid layer
G1 X115.403 Y27.933 F4800
G92 E0.0000
G1 X115.801 Y28.331 E0.0421 F960
G1 X115.801 Y29.179 E0.1056
G1 X114.555 Y27.933 E0.2375
G1 X113.706 Y27.933 E0.3010
G1 X115.801 Y30.028 E0.5228
G1 X115.801 Y30.876 E0.5863
G1 X112.858 Y27.933 E0.8978
G1 X112.009 Y27.933 E0.9613
G1 X115.801 Y31.725 E1.3626
G1 X115.801 Y32.573 E1.4261
G1 X111.161 Y27.933 E1.9172
G1 X110.312 Y27.933 E1.9807
G1 X115.801 Y33.422 E2.5617
G1 X115.801 Y34.270 E2.6252
G1 X109.464 Y27.933 E3.2959
G1 X108.615 Y27.933 E3.3594
G1 X115.801 Y35.119 E4.1199
G1 X115.801 Y35.967 E4.1834
G1 X107.767 Y27.933 E5.0338
G1 X106.918 Y27.933 E5.0973
G1 X115.801 Y36.816 E6.0374
G1 X115.801 Y37.664 E6.1009
G1 X106.069 Y27.933 E7.1309
G1 X105.221 Y27.933 E7.1944
G1 X115.801 Y38.513 E8.3141
G1 X115.801 Y39.361 E8.3776
G1 X104.372 Y27.933 E9.5871
G1 X103.524 Y27.933 E9.6506
G1 X115.801 Y40.210 E10.9500
G1 X115.801 Y41.058 E11.0135
G1 X102.675 Y27.933 E12.4026
G1 X101.827 Y27.933 E12.4661
G1 X115.801 Y41.907 E13.9451
G1 X115.801 Y42.755 E14.0086
G1 X100.978 Y27.933 E15.5774
G1 X100.130 Y27.933 E15.6409
G1 X115.801 Y43.604 E17.2994
G1 X115.801 Y44.453 E17.3629
G1 X99.281 Y27.933 E19.1113
G1 X99.281 Y28.781 E19.1748
G1 X114.953 Y44.453 E20.8333
G1 X114.104 Y44.453 E20.8968
G1 X99.281 Y29.630 E22.4656
G1 X99.281 Y30.478 E22.5291
G1 X113.256 Y44.453 E24.0081
G1 X112.407 Y44.453 E24.0716
G1 X99.281 Y31.327 E25.4607
G1 X99.281 Y32.175 E25.5242
G1 X111.559 Y44.453 E26.8236
G1 X110.710 Y44.453 E26.8871
G1 X99.281 Y33.024 E28.0966
G1 X99.281 Y33.872 E28.1601
G1 X109.862 Y44.453 E29.2799
G1 X109.013 Y44.453 E29.3434
G1 X99.281 Y34.721 E30.3733
G1 X99.281 Y35.569 E30.4368
G1 X108.165 Y44.453 E31.3769
G1 X107.316 Y44.453 E31.4404
G1 X99.281 Y36.418 E32.2908
G1 X99.281 Y37.266 E32.3543
G1 X106.467 Y44.453 E33.1148
G1 X105.619 Y44.453 E33.1783
G1 X99.281 Y38.115 E33.8491
G1 X99.281 Y38.963 E33.9126
G1 X104.770 Y44.453 E34.4935
G1 X103.922 Y44.453 E34.5570
G1 X99.281 Y39.812 E35.0481
G1 X99.281 Y40.660 E35.1116
G1 X103.073 Y44.453 E35.5130
G1 X102.225 Y44.453 E35.5765
G1 X99.281 Y41.509 E35.8880
G1 X99.281 Y42.358 E35.9515
G1 X101.376 Y44.453 E36.1732
G1 X100.528 Y44.453 E36.2367
G1 X99.281 Y43.206 E36.3686
G1 X99.281 Y44.055 E36.4321
G1 X99.679 Y44.453 E36.4742
G92 E0.0000
G1 E-6.0000 F1800
; layer 2, Z = 0.600
M106 S255
M104 S220 T0
; feature inner perimeter
; tool H0.300 W0.480
G1 Z0.600 F1002
G1 X98.741 Y44.993 F4800
G1 E0.0000 F1800
G92 E0.0000
G1 X98.741 Y27.393 E1.0537 F2250
G1 X116.341 Y27.393 E2.1074
G1 X116.341 Y44.993 E3.1610
G1 X98.741 Y44.993 E4.2147
G1 X98.261 Y45.473 F4800
G92 E0.0000
G1 X98.261 Y26.913 E1.1112 F2250
G1 X116.821 Y26.913 E2.2223
G1 X116.821 Y45.473 E3.3335
G1 X98.261 Y45.473 E4.4446
; feature outer perimeter
G1 X97.781 Y45.953 F4800
G92 E0.0000
G1 X97.781 Y26.433 E1.1686 F1500
G1 X117.301 Y26.433 E2.3373
G1 X117.301 Y45.953 E3.5059
G1 X97.781 Y45.953 E4.6745
; feature solid layer
G1 X98.933 Y27.830 F4800
G92 E0.0000
G1 X99.179 Y27.585 E0.0208 F2400
G1 X99.858 Y27.585 E0.0614
G1 X98.933 Y28.509 E0.1397
G1 X98.933 Y29.188 E0.1803
G1 X100.536 Y27.585 E0.3161
G1 X101.215 Y27.585 E0.3567
G1 X98.933 Y29.867 E0.5499
G1 X98.933 Y30.545 E0.5905
G1 X101.894 Y27.585 E0.8412
G1 X102.573 Y27.585 E0.8819
G1 X98.933 Y31.224 E1.1900
G1 X98.933 Y31.903 E1.2307
G1 X103.252 Y27.585 E1.5963
G1 X103.930 Y27.585 E1.6369
G1 X98.933 Y32.582 E2.0600
G1 X98.933 Y33.261 E2.1007
G1 X104.609 Y27.585 E2.5812
G1 X105.288 Y27.585 E2.6219
G1 X98.933 Y33.939 E3.1599
G1 X98.933 Y34.618 E3.2006
G1 X105.967 Y27.585 E3.7961
G1 X106.646 Y27.585 E3.8367
G1 X98.933 Y35.297 E4.4897
G1 X98.933 Y35.976 E4.5303
G1 X107.325 Y27.585 E5.2408
G1 X108.003 Y27.585 E5.2815
G1 X98.933 Y36.655 E6.0494
G1 X98.933 Y37.334 E6.0900
G1 X108.682 Y27.585 E6.9154
G1 X109.361 Y27.585 E6.9561
G1 X98.933 Y38.012 E7.8390
G1 X98.933 Y38.691 E7.8796
G1 X110.040 Y27.585 E8.8200
G1 X110.719 Y27.585 E8.8606
G1 X98.933 Y39.370 E9.8585
G1 X98.933 Y40.049 E9.8991
G1 X111.398 Y27.585 E10.9544
G1 X112.076 Y27.585 E10.9950
G1 X98.933 Y40.728 E12.1078
G1 X98.933 Y41.406 E12.1485
G1 X112.755 Y27.585 E13.3187
G1 X113.434 Y27.585 E13.3594
G1 X98.933 Y42.085 E14.5871
G1 X98.933 Y42.764 E14.6277
G1 X114.113 Y27.585 E15.9129
G1 X114.792 Y27.585 E15.9536
G1 X98.933 Y43.443 E17.2962
G1 X98.933 Y44.122 E17.3369
G1 X115.470 Y27.585 E18.7370
G1 X116.149 Y27.585 E18.7777
G1 X98.933 Y44.801 E20.2353
G1 X99.612 Y44.801 E20.2759
G1 X116.149 Y28.263 E21.6761
G1 X116.149 Y28.942 E21.7167
G1 X100.291 Y44.801 E23.0594
G1 X100.970 Y44.801 E23.1000
G1 X116.149 Y29.621 E24.3852
G1 X116.149 Y30.300 E24.4258
G1 X101.649 Y44.801 E25.6536
G1 X102.327 Y44.801 E25.6942
G1 X116.149 Y30.979 E26.8644
G1 X116.149 Y31.658 E26.9051
G1 X103.006 Y44.801 E28.0179
G1 X103.685 Y44.801 E28.0585
G1 X116.149 Y32.336 E29.1138
G1 X116.149 Y33.015 E29.1544
G1 X104.364 Y44.801 E30.1523
G1 X105.043 Y44.801 E30.1929
G1 X116.149 Y33.694 E31.1333
G1 X116.149 Y34.373 E31.1739
G1 X105.722 Y44.801 E32.0568
G1 X106.400 Y44.801 E32.0974
G1 X116.149 Y35.052 E32.9228
G1 X116.149 Y35.730 E32.9635
G1 X107.079 Y44.801 E33.7314
G1 X107.758 Y44.801 E33.7720
G1 X116.149 Y36.409 E34.4825
G1 X116.149 Y37.088 E34.5231
G1 X108.437 Y44.801 E35.1761
G1 X109.116 Y44.801 E35.2168
G1 X116.149 Y37.767 E35.8123
G1 X116.149 Y38.446 E35.8529
G1 X109.794 Y44.801 E36.3909
G1 X110.473 Y44.801 E36.4316
G1 X116.149 Y39.125 E36.9121
G1 X116.149 Y39.803 E36.9528
G1 X111.152 Y44.801 E37.3759
G1 X111.831 Y44.801 E37.4165
G1 X116.149 Y40.482 E37.7821
G1 X116.149 Y41.161 E37.8228
G1 X112.510 Y44.801 E38.1309
G1 X113.189 Y44.801 E38.1716
G1 X116.149 Y41.840 E38.4222
G1 X116.149 Y42.519 E38.4629
G1 X113.867 Y44.801 E38.6561
G1 X114.546 Y44.801 E38.6967
G1 X116.149 Y43.198 E38.8324
G1 X116.149 Y43.876 E38.8731
G1 X115.225 Y44.801 E38.9513
G1 X115.904 Y44.801 E38.9920
G1 X116.149 Y44.555 E39.0127
G92 E0.0000
G1 E-6.0000 F1800
; layer 3, Z = 0.900
; feature inner perimeter
G1 Z0.900 F1002
G1 X116.341 Y44.993 F4800
G1 E0.0000 F1800
G92 E0.0000
G1 X98.741 Y44.993 E1.0537 F2250
G1 X98.741 Y27.393 E2.1074
G1 X116.341 Y27.393 E3.1610
G1 X116.341 Y44.993 E4.2147
G1 X116.821 Y45.473 F4800
G92 E0.0000
G1 X98.261 Y45.473 E1.1112 F2250
G1 X98.261 Y26.913 E2.2223
G1 X116.821 Y26.913 E3.3335
G1 X116.821 Y45.473 E4.4446
; feature outer perimeter
G1 X117.301 Y45.953 F4800
G92 E0.0000
G1 X97.781 Y45.953 E1.1686 F1500
G1 X97.781 Y26.433 E2.3373
G1 X117.301 Y26.433 E3.5059
G1 X117.301 Y45.953 E4.6745
; feature solid layer
G1 X99.179 Y44.801 F4800
G92 E0.0000
G1 X98.933 Y44.555 E0.0208 F2400
G1 X98.933 Y43.876 E0.0614
G1 X99.858 Y44.801 E0.1397
G1 X100.536 Y44.801 E0.1803
G1 X98.933 Y43.197 E0.3160
G1 X98.933 Y42.519 E0.3567
G1 X101.215 Y44.801 E0.5499
G1 X101.894 Y44.801 E0.5905
G1 X98.933 Y41.840 E0.8412
G1 X98.933 Y41.161 E0.8818
G1 X102.573 Y44.801 E1.1900
G1 X103.252 Y44.801 E1.2306
G1 X98.933 Y40.482 E1.5963
G1 X98.933 Y39.803 E1.6369
G1 X103.930 Y44.801 E2.0600
G1 X104.609 Y44.801 E2.1006
G1 X98.933 Y39.125 E2.5812
G1 X98.933 Y38.446 E2.6218
G1 X105.288 Y44.801 E3.1599
G1 X105.967 Y44.801 E3.2005
G1 X98.933 Y37.767 E3.7960
G1 X98.933 Y37.088 E3.8367
G1 X106.646 Y44.801 E4.4897
G1 X107.325 Y44.801 E4.5303
G1 X98.933 Y36.409 E5.2408
G1 X98.933 Y35.730 E5.2814
G1 X108.003 Y44.801 E6.0493
G1 X108.682 Y44.801 E6.0900
G1 X98.933 Y35.052 E6.9154
G1 X98.933 Y34.373 E6.9560
G1 X109.361 Y44.801 E7.8389
G1 X110.040 Y44.801 E7.8796
G1 X98.933 Y33.694 E8.8199
G1 X98.933 Y33.015 E8.8606
G1 X110.719 Y44.801 E9.8584
G1 X111.398 Y44.801 E9.8990
G1 X98.933 Y32.336 E10.9543
G1 X98.933 Y31.657 E10.9950
G1 X112.076 Y44.801 E12.1078
G1 X112.755 Y44.801 E12.1484
G1 X98.933 Y30.979 E13.3186
G1 X98.933 Y30.300 E13.3593
G1 X113.434 Y44.801 E14.5870
