; G-Code generated by Simplify3D(R) Version 4.1.2
; Feb 1, 2021 at 8:22:16 PM
; Settings Summary
;   processName,Process1
;   applyToModels,Fun Guy v1 17Jan21
;   profileName,PLA Left Large - Geeetech A10M (modified)
;   profileVersion,2021-01-19 21:47:04
;   baseProfile,Geeetech A10M
;   printMaterial,PLA
;   printQuality,High
;   printExtruders,Left Extruder Only
;   extruderName,Right Extruder,Left Extruder,Mix Extruder
;   extruderToolheadNumber,0,1,2
;   extruderDiameter,0.4,0.4,0.4
;   extruderAutoWidth,1,1,0
;   extruderWidth,0.48,0.48,0.6
;   extrusionMultiplier,1,1,1
;   extruderUseRetract,1,1,1
;   extruderRetractionDistance,6,6,8
;   extruderExtraRestartDistance,0,0,0
;   extruderRetractionZLift,0,0,0
;   extruderRetractionSpeed,1800,1800,1800
;   extruderUseCoasting,0,0,1
;   extruderCoastingDistance,0.2,0.2,0.4
;   extruderUseWipe,0,0,1
;   extruderWipeDistance,5,5,5
;   primaryExtruder,1
;   layerHeight,0.3
;   topSolidLayers,3
;   bottomSolidLayers,3
;   perimeterOutlines,3
;   printPerimetersInsideOut,1
;   startPointOption,2
;   startPointOriginX,0
;   startPointOriginY,0
;   sequentialIslands,0
;   spiralVaseMode,0
;   firstLayerHeightPercentage,100
;   firstLayerWidthPercentage,125
;   firstLayerUnderspeed,0.4
;   useRaft,0
;   raftExtruder,1
;   raftTopLayers,3
;   raftBaseLayers,2
;   raftOffset,0.6
;   raftSeparationDistance,0.14
;   raftTopInfill,100
;   aboveRaftSpeedMultiplier,0.3
;   useSkirt,1
;   skirtExtruder,1
;   skirtLayers,1
;   skirtOutlines,1
;   skirtOffset,2
;   usePrimePillar,0
;   primePillarExtruder,999
;   primePillarWidth,15
;   primePillarLocation,7
;   primePillarSpeedMultiplier,1
;   useOozeShield,0
;   oozeShieldExtruder,999
;   oozeShieldOffset,2
;   oozeShieldOutlines,1
;   oozeShieldSidewallShape,1
;   oozeShieldSidewallAngle,30
;   oozeShieldSpeedMultiplier,1
;   infillExtruder,1
;   internalInfillPattern,Full Honeycomb
;   externalInfillPattern,Rectilinear
;   infillPercentage,20
;   outlineOverlapPercentage,60
;   infillExtrusionWidthPercentage,100
;   minInfillLength,5
;   infillLayerInterval,1
;   internalInfillAngles,0,120,-120
;   overlapInternalInfillAngles,0
;   externalInfillAngles,45,-45
;   generateSupport,0
;   supportExtruder,1
;   supportInfillPercentage,40
;   supportExtraInflation,0
;   supportBaseLayers,0
;   denseSupportExtruder,1
;   denseSupportLayers,0
;   denseSupportInfillPercentage,70
;   supportLayerInterval,1
;   supportHorizontalPartOffset,0.3
;   supportUpperSeparationLayers,1
;   supportLowerSeparationLayers,1
;   supportType,0
;   supportGridSpacing,4
;   maxOverhangAngle,45
;   supportAngles,0
;   temperatureName,Shared Heater,Heated Bed
;   temperatureNumber,0,0
;   temperatureSetpointCount,2,1
;   temperatureSetpointLayers,1,2,1
;   temperatureSetpointTemperatures,225,220,75
;   temperatureStabilizeAtStartup,1,0
;   temperatureHeatedBed,0,1
;   fanLayers,1,2
;   fanSpeeds,0,100
;   blipFanToFullPower,0
;   adjustSpeedForCooling,1
;   minSpeedLayerTime,15
;   minCoolingSpeedSlowdown,20
;   increaseFanForCooling,0
;   minFanLayerTime,45
;   maxCoolingFanSpeed,100
;   increaseFanForBridging,0
;   bridgingFanSpeed,100
;   use5D,1
;   relativeEdistances,0
;   allowEaxisZeroing,1
;   independentExtruderAxes,0
;   includeM10123,0
;   stickySupport,1
;   applyToolheadOffsets,0
;   gcodeXoffset,0
;   gcodeYoffset,0
;   gcodeZoffset,0
;   overrideMachineDefinition,1
;   machineTypeOverride,0
;   strokeXoverride,220
;   strokeYoverride,220
;   strokeZoverride,260
;   originOffsetXoverride,0
;   originOffsetYoverride,0
;   originOffsetZoverride,0
;   homeXdirOverride,-1
;   homeYdirOverride,-1
;   homeZdirOverride,-1
;   flipXoverride,1
;   flipYoverride,-1
;   flipZoverride,1
;   toolheadOffsets,0,0|0,0|0,0|0,0|0,0|0,0
;   overrideFirmwareConfiguration,1
;   firmwareTypeOverride,RepRap (Marlin/Repetier/Sprinter)
;   GPXconfigOverride,r2
;   baudRateOverride,250000
;   overridePrinterModels,1
;   printerModelsOverride
;   startingGcode,M140 S[bed0_temperature],G28 ; home all axes,G29,M109 S[extruder0_temperature],M205 X10 Y10 ; set XY jerk to 10,M163 S0 P0.0,M163 S1 P1.0,M164 S1 ; set T1 mixing ratio to full left,T1 ; select extruder,G1 X15 Y10 Z0.3 F3000 ; avoid binder clips,G1 X195 E15 F500 ; prime line,G1 X205 F100 ; slow wipe
;   layerChangeGcode,
;   retractionGcode,
;   toolChangeGcode,G92 E0 ; zero extruded length,G1 E-[toolchange_retract_distance] F[toolchange_retract_speed] ; retract,G92 E0 ; zero extruded length,G1 X[next_position_x] Y[next_position_y] F[travel_speed] ; move to ooze shield or prime pillar,G1 E[toolchange_prime_distance] F[toolchange_retract_speed] ; unretract,G92 E0 ; zero extruded length,T[new_tool] ; perform toolchange
;   endingGcode,G91 ; use relative coordinates for jogging,G1 Z50 F1800 ; raise Z by 50mm at 1800 mm/min,G90 ; switch back to absolute coordinates,M104 S0 ; turn off extruder,M140 S0 ; turn off bed,M84 ; disable motors,
;   exportFileFormat,gcode
;   celebration,0
;   celebrationSong,Random Song
;   postProcessing,
;   defaultSpeed,3000
;   outlineUnderspeed,0.5
;   solidInfillUnderspeed,0.8
;   supportUnderspeed,0.8
;   rapidXYspeed,4800
;   rapidZspeed,1002
;   minBridgingArea,50
;   bridgingExtraInflation,0
;   bridgingExtrusionMultiplier,1
;   bridgingSpeedMultiplier,1
;   useFixedBridgingAngle,0
;   fixedBridgingAngle,0
;   applyBridgingToPerimeters,0
;   filamentDiameters,1.75|1.75|1.75|1.75|1.75|1.75
;   filamentPricesPerKg,46|46|46|46|46|46
;   filamentDensities,1.25|1.25|1.25|1.25|1.25|1.25
;   useMinPrintHeight,0
;   minPrintHeight,0
;   useMaxPrintHeight,0
;   maxPrintHeight,0
;   useDiaphragm,0
;   diaphragmLayerInterval,20
;   robustSlicing,1
;   mergeAllIntoSolid,0
;   onlyRetractWhenCrossingOutline,1
;   retractBetweenLayers,1
;   useRetractionMinTravel,0
;   retractionMinTravel,3
;   retractWhileWiping,0
;   onlyWipeOutlines,1
;   avoidCrossingOutline,0
;   maxMovementDetourFactor,3
;   toolChangeRetractionDistance,8
;   toolChangeExtraRestartDistance,0
;   toolChangeRetractionSpeed,1800
;   externalThinWallType,0
;   internalThinWallType,2
;   thinWallAllowedOverlapPercentage,10
;   singleExtrusionMinLength,1
;   singleExtrusionMinPrintingWidthPercentage,50
;   singleExtrusionMaxPrintingWidthPercentage,200
;   singleExtrusionEndpointExtension,0.2
;   horizontalSizeCompensation,0
G90
M82
M106 S0
M140 S75
G28 ; home all axes
G29
M109 S225
M205 X10 Y10 ; set XY jerk to 10
M163 S0 P0.0
M163 S1 P1.0
M164 S1 ; set T1 mixing ratio to full left
T1 ; select extruder
G1 X15 Y10 Z0.3 F3000 ; avoid binder clips
G1 X195 E15 F500 ; prime line
G1 X205 F100 ; slow wipe
; process Process1
; layer 1, Z = 0.300
G92 E0 ; zero extruded length
G1 E-8.0000 F1800 ; retract
G92 E0 ; zero extruded length
G1 X89.047 Y87.976 F4800 ; move to ooze shield or prime pillar
G1 E8.0000 F1800 ; unretract
G92 E0 ; zero extruded length
T1 ; perform toolchange
G92 E0.0000
G1 E-6.0000 F1800
; feature skirt
; tool H0.300 W0.600
G1 Z0.300 F1002
G1 X89.047 Y87.976 F4800
G1 E0.0000 F1800
G92 E0.0000
G1 X130.953 Y87.976 E3.1360 F1200
G1 X132.300 Y89.323 E3.2786
G1 X132.300 Y131.229 E6.4146
G1 X130.953 Y132.576 E6.5572
G1 X89.047 Y132.576 E9.6932
G1 X87.700 Y131.229 E9.8358
G1 X87.700 Y89.323 E12.9718
G1 X89.047 Y87.976 E13.1144
G92 E0.0000
G1 E-6.0000 F1800
; feature inner perimeter
G1 X91.500 Y91.776 F4800
G1 E0.0000 F1800
G92 E0.0000
G1 X128.500 Y91.776 E2.7689 F900
G1 X128.500 Y128.776 E5.5378
G1 X91.500 Y128.776 E8.3067
G1 X91.500 Y91.776 E11.0756
G1 X90.900 Y91.176 F4800
G92 E0.0000
G1 X129.100 Y91.176 E2.8587 F900
G1 X129.100 Y129.376 E5.7174
G1 X90.900 Y129.376 E8.5761
G1 X90.900 Y91.176 E11.4348
; feature outer perimeter
G1 X90.300 Y90.576 F4800
G92 E0.0000
G1 X129.700 Y90.576 E2.9485 F600
G1 X129.700 Y129.976 E5.8970
G1 X90.300 Y129.976 E8.8455
G1 X90.300 Y90.576 E11.7940
; feature solid layer
G1 X127.654 Y92.016 F4800
G92 E0.0000
G1 X128.260 Y92.622 E0.0641 F960
G1 X128.260 Y93.470 E0.1276
G1 X126.806 Y92.016 E0.2815
G1 X125.957 Y92.016 E0.3450
G1 X128.260 Y94.319 E0.5887
G1 X128.260 Y95.167 E0.6522
G1 X125.109 Y92.016 E0.9857
G1 X124.260 Y92.016 E1.0492
G1 X128.260 Y96.016 E1.4725
G1 X128.260 Y96.864 E1.5360
G1 X123.412 Y92.016 E2.0491
G1 X122.563 Y92.016 E2.1126
G1 X128.260 Y97.713 E2.7155
G1 X128.260 Y98.562 E2.7790
G1 X121.715 Y92.016 E3.4718
G1 X120.866 Y92.016 E3.5353
G1 X128.260 Y99.410 E4.3178
G1 X128.260 Y100.259 E4.3813
G1 X120.018 Y92.016 E5.2536
G1 X119.169 Y92.016 E5.3171
G1 X128.260 Y101.107 E6.2792
G1 X128.260 Y101.956 E6.3427
G1 X118.321 Y92.016 E7.3946
G1 X117.472 Y92.016 E7.4581
G1 X128.260 Y102.804 E8.5999
G1 X128.260 Y103.653 E8.6634
G1 X116.623 Y92.016 E9.8949
G1 X115.775 Y92.016 E9.9584
G1 X128.260 Y104.501 E11.2797
G1 X128.260 Y105.350 E11.3432
G1 X114.926 Y92.016 E12.7544
G1 X114.078 Y92.016 E12.8179
G1 X128.260 Y106.198 E14.3188
G1 X128.260 Y107.047 E14.3823
G1 X113.229 Y92.016 E15.9730
G1 X112.381 Y92.016 E16.0365
G1 X128.260 Y107.895 E17.7171
G1 X128.260 Y108.744 E17.7806
G1 X111.532 Y92.016 E19.5509
G1 X110.684 Y92.016 E19.6144
G1 X128.260 Y109.592 E21.4746
G1 X128.260 Y110.441 E21.5381
G1 X109.835 Y92.016 E23.4880
G1 X108.987 Y92.016 E23.5515
G1 X128.260 Y111.289 E25.5913
G1 X128.260 Y112.138 E25.6548
G1 X108.138 Y92.016 E27.7843
G1 X107.290 Y92.016 E27.8478
G1 X128.260 Y112.986 E30.0672
G1 X128.260 Y113.835 E30.1307
G1 X106.441 Y92.016 E32.4398
G1 X105.593 Y92.016 E32.5033
G1 X128.260 Y114.684 E34.9023
G1 X128.260 Y115.532 E34.9658
G1 X104.744 Y92.016 E37.4546
G1 X103.896 Y92.016 E37.5181
G1 X128.260 Y116.381 E40.0966
G1 X128.260 Y117.229 E40.1601
G1 X103.047 Y92.016 E42.8285
G1 X102.199 Y92.016 E42.8920
G1 X128.260 Y118.078 E45.6502
G1 X128.260 Y118.926 E45.7137
G1 X101.350 Y92.016 E48.5616
G1 X100.501 Y92.016 E48.6251
G1 X128.260 Y119.775 E51.5629
G1 X128.260 Y120.623 E51.6264
G1 X99.653 Y92.016 E54.6540
G1 X98.804 Y92.016 E54.7175
G1 X128.260 Y121.472 E57.8349
G1 X128.260 Y122.320 E57.8984
G1 X97.956 Y92.016 E61.1055
G1 X97.107 Y92.016 E61.1690
G1 X128.260 Y123.169 E64.4660
G1 X128.260 Y124.017 E64.5295
G1 X96.259 Y92.016 E67.9163
G1 X95.410 Y92.016 E67.9798
G1 X128.260 Y124.866 E71.4564
G1 X128.260 Y125.714 E71.5199
G1 X94.562 Y92.016 E75.0863
G1 X93.713 Y92.016 E75.1498
G1 X128.260 Y126.563 E78.8060
G1 X128.260 Y127.411 E78.8695
G1 X92.865 Y92.016 E82.6155
G1 X92.016 Y92.016 E82.6790
G1 X128.260 Y128.260 E86.5148
G1 X128.260 Y128.536 E86.5354
G1 X127.688 Y128.536 E86.5783
G1 X91.740 Y92.589 E90.3827
G1 X91.740 Y93.437 E90.4462
G1 X126.839 Y128.536 E94.1609
G1 X125.991 Y128.536 E94.2244
G1 X91.740 Y94.286 E97.8492
G1 X91.740 Y95.134 E97.9127
G1 X125.142 Y128.536 E101.4478
G1 X124.294 Y128.536 E101.5113
G1 X91.740 Y95.983 E104.9565
G1 X91.740 Y96.831 E105.0200
G1 X123.445 Y128.536 E108.3754
G1 X122.596 Y128.536 E108.4389
G1 X91.740 Y97.680 E111.7046
G1 X91.740 Y98.528 E111.7681
G1 X121.748 Y128.536 E114.9439
G1 X120.899 Y128.536 E115.0074
G1 X91.740 Y99.377 E118.0934
G1 X91.740 Y100.225 E118.1569
G1 X120.051 Y128.536 E121.1532
G1 X119.202 Y128.536 E121.2167
G1 X91.740 Y101.074 E124.1231
G1 X91.740 Y101.922 E124.1866
G1 X118.354 Y128.536 E127.0032
G1 X117.505 Y128.536 E127.0667
G1 X91.740 Y102.771 E129.7935
G1 X91.740 Y103.619 E129.8570
G1 X116.657 Y128.536 E132.4941
G1 X115.808 Y128.536 E132.5576
G1 X91.740 Y104.468 E135.1048
G1 X91.740 Y105.316 E135.1683
G1 X114.960 Y128.536 E137.6257
G1 X114.111 Y128.536 E137.6892
G1 X91.740 Y106.165 E140.0568
G1 X91.740 Y107.013 E140.1203
G1 X113.263 Y128.536 E142.3981
G1 X112.414 Y128.536 E142.4616
G1 X91.740 Y107.862 E144.6496
G1 X91.740 Y108.711 E144.7131
G1 X111.566 Y128.536 E146.8113
G1 X110.717 Y128.536 E146.8748
G1 X91.740 Y109.559 E148.8832
G1 X91.740 Y110.408 E148.9467
G1 X109.869 Y128.536 E150.8653
G1 X109.020 Y128.536 E150.9288
G1 X91.740 Y111.256 E152.7576
G1 X91.740 Y112.105 E152.8211
G1 X108.171 Y128.536 E154.5601
G1 X107.323 Y128.536 E154.6236
G1 X91.740 Y112.953 E156.2728
G1 X91.740 Y113.802 E156.3363
G1 X106.474 Y128.536 E157.8957
G1 X105.626 Y128.536 E157.9592
G1 X91.740 Y114.650 E159.4288
G1 X91.740 Y115.499 E159.4923
G1 X104.777 Y128.536 E160.8721
G1 X103.929 Y128.536 E160.9356
G1 X91.740 Y116.347 E162.2255
G1 X91.740 Y117.196 E162.2890
G1 X103.080 Y128.536 E163.4892
G1 X102.232 Y128.536 E163.5527
G1 X91.740 Y118.044 E164.6631
G1 X91.740 Y118.893 E164.7266
G1 X101.383 Y128.536 E165.7472
G1 X100.535 Y128.536 E165.8107
G1 X91.740 Y119.741 E166.7415
G1 X91.740 Y120.590 E166.8050
G1 X99.686 Y128.536 E167.6459
G1 X98.838 Y128.536 E167.7094
G1 X91.740 Y121.438 E168.4606
G1 X91.740 Y122.287 E168.5241
G1 X97.989 Y128.536 E169.1855
G1 X97.141 Y128.536 E169.2490
G1 X91.740 Y123.136 E169.8205
G1 X91.740 Y123.984 E169.8840
G1 X96.292 Y128.536 E170.3658
G1 X95.444 Y128.536 E170.4293
G1 X91.740 Y124.833 E170.8212
G1 X91.740 Y125.681 E170.8847
G1 X94.595 Y128.536 E171.1869
G1 X93.747 Y128.536 E171.2504
G1 X91.740 Y126.530 E171.4628
G1 X91.740 Y127.378 E171.5263
G1 X92.898 Y128.536 E171.6488
G1 X92.049 Y128.536 E171.7123
G1 X91.740 Y128.227 E171.7451
G92 E0.0000
G1 E-6.0000 F1800
; layer 2, Z = 0.600
M106 S255
M104 S220 T0
; feature inner perimeter
; tool H0.300 W0.480
G1 Z0.600 F1002
G1 X91.200 Y129.076 F4800
G1 E0.0000 F1800
G92 E0.0000
G1 X91.200 Y91.476 E2.2510 F2250
G1 X128.800 Y91.476 E4.5021
G1 X128.800 Y129.076 E6.7531
G1 X91.200 Y129.076 E9.0042
G1 X90.720 Y129.556 F4800
G92 E0.0000
G1 X90.720 Y90.996 E2.3085 F2250
G1 X129.280 Y90.996 E4.6170
G1 X129.280 Y129.556 E6.9256
G1 X90.720 Y129.556 E9.2341
; feature outer perimeter
G1 X90.240 Y130.036 F4800
G92 E0.0000
G1 X90.240 Y90.516 E2.3660 F1500
G1 X129.760 Y90.516 E4.7320
G1 X129.760 Y130.036 E7.0980
G1 X90.240 Y130.036 E9.4640
; feature solid layer
G1 X91.392 Y91.952 F4800
G92 E0.0000
G1 X91.675 Y91.668 E0.0240 F2400
G1 X92.354 Y91.668 E0.0646
G1 X91.392 Y92.630 E0.1461
G1 X91.392 Y93.309 E0.1868
G1 X93.033 Y91.668 E0.3257
G1 X93.712 Y91.668 E0.3663
G1 X91.392 Y93.988 E0.5628
G1 X91.392 Y94.667 E0.6034
G1 X94.391 Y91.668 E0.8573
G1 X95.070 Y91.668 E0.8979
G1 X91.392 Y95.346 E1.2093
G1 X91.392 Y96.025 E1.2499
G1 X95.748 Y91.668 E1.6188
G1 X96.427 Y91.668 E1.6594
G1 X91.392 Y96.703 E2.0857
G1 X91.392 Y97.382 E2.1264
G1 X97.106 Y91.668 E2.6102
G1 X97.785 Y91.668 E2.6508
G1 X91.392 Y98.061 E3.1921
G1 X91.392 Y98.740 E3.2327
G1 X98.464 Y91.668 E3.8314
G1 X99.143 Y91.668 E3.8721
G1 X91.392 Y99.419 E4.5283
G1 X91.392 Y100.097 E4.5689
G1 X99.821 Y91.668 E5.2826
G1 X100.500 Y91.668 E5.3233
G1 X91.392 Y100.776 E6.0944
G1 X91.392 Y101.455 E6.1350
G1 X101.179 Y91.668 E6.9637
G1 X101.858 Y91.668 E7.0043
G1 X91.392 Y102.134 E7.8904
G1 X91.392 Y102.813 E7.9311
G1 X102.537 Y91.668 E8.8746
G1 X103.215 Y91.668 E8.9153
G1 X91.392 Y103.492 E9.9163
G1 X91.392 Y104.170 E9.9570
G1 X103.894 Y91.668 E11.0155
G1 X104.573 Y91.668 E11.0561
G1 X91.392 Y104.849 E12.1721
G1 X91.392 Y105.528 E12.2128
G1 X105.252 Y91.668 E13.3862
G1 X105.931 Y91.668 E13.4269
G1 X91.392 Y106.207 E14.6578
G1 X91.392 Y106.886 E14.6985
G1 X106.610 Y91.668 E15.9869
G1 X107.288 Y91.668 E16.0275
G1 X91.392 Y107.565 E17.3734
G1 X91.392 Y108.243 E17.4140
G1 X107.967 Y91.668 E18.8174
G1 X108.646 Y91.668 E18.8581
G1 X91.392 Y108.922 E20.3189
G1 X91.392 Y109.601 E20.3595
G1 X109.325 Y91.668 E21.8778
G1 X110.004 Y91.668 E21.9185
G1 X91.392 Y110.280 E23.4943
G1 X91.392 Y110.959 E23.5349
G1 X110.683 Y91.668 E25.1682
G1 X111.361 Y91.668 E25.2088
G1 X91.392 Y111.637 E26.8995
G1 X91.392 Y112.316 E26.9402
G1 X112.040 Y91.668 E28.6884
G1 X112.719 Y91.668 E28.7290
G1 X91.392 Y112.995 E30.5347
