; G-Code generated by Simplify3D(R) Version 4.1.2
; Feb 3, 2021 at 10:16:30 PM
; Settings Summary
;   processName,Process1
;   applyToModels,Heat_tower_190-240_Bridge
;   profileName,PLA Left Large - Geeetech A10M (modified)
;   profileVersion,2021-01-19 21:47:04
;   baseProfile,Geeetech A10M
;   printMaterial,PLA
;   printQuality,High
;   printExtruders,Left Extruder Only
;   extruderName,Right Extruder,Left Extruder,Mix Extruder
;   extruderToolheadNumber,0,1,2
;   extruderDiameter,0.4,0.4,0.4
;   extruderAutoWidth,1,1,0
;   extruderWidth,0.48,0.48,0.6
;   extrusionMultiplier,1,1,1
;   extruderUseRetract,1,1,1
;   extruderRetractionDistance,6,6,8
;   extruderExtraRestartDistance,0,0,0
;   extruderRetractionZLift,0,0,0
;   extruderRetractionSpeed,1800,1800,1800
;   extruderUseCoasting,0,0,1
;   extruderCoastingDistance,0.2,0.2,0.4
;   extruderUseWipe,0,0,1
;   extruderWipeDistance,5,5,5
;   primaryExtruder,1
;   layerHeight,0.25
;   topSolidLayers,2
;   bottomSolidLayers,2
;   perimeterOutlines,2
;   printPerimetersInsideOut,1
;   startPointOption,2
;   startPointOriginX,0
;   startPointOriginY,0
;   sequentialIslands,0
;   spiralVaseMode,0
;   firstLayerHeightPercentage,100
;   firstLayerWidthPercentage,125
;   firstLayerUnderspeed,0.4
;   useRaft,0
;   raftExtruder,1
;   raftTopLayers,3
;   raftBaseLayers,2
;   raftOffset,0.6
;   raftSeparationDistance,0.14
;   raftTopInfill,100
;   aboveRaftSpeedMultiplier,0.3
;   useSkirt,1
;   skirtExtruder,1
;   skirtLayers,1
;   skirtOutlines,1
;   skirtOffset,2
;   usePrimePillar,0
;   primePillarExtruder,999
;   primePillarWidth,15
;   primePillarLocation,7
;   primePillarSpeedMultiplier,1
;   useOozeShield,0
;   oozeShieldExtruder,999
;   oozeShieldOffset,2
;   oozeShieldOutlines,1
;   oozeShieldSidewallShape,1
;   oozeShieldSidewallAngle,30
;   oozeShieldSpeedMultiplier,1
;   infillExtruder,1
;   internalInfillPattern,Full Honeycomb
;   externalInfillPattern,Rectilinear
;   infillPercentage,10
;   outlineOverlapPercentage,60
;   infillExtrusionWidthPercentage,100
;   minInfillLength,5
;   infillLayerInterval,1
;   internalInfillAngles,0,120,-120
;   overlapInternalInfillAngles,0
;   externalInfillAngles,45,-45
;   generateSupport,0
;   supportExtruder,1
;   supportInfillPercentage,40
;   supportExtraInflation,0
;   supportBaseLayers,0
;   denseSupportExtruder,1
;   denseSupportLayers,0
;   denseSupportInfillPercentage,70
;   supportLayerInterval,1
;   supportHorizontalPartOffset,0.3
;   supportUpperSeparationLayers,1
;   supportLowerSeparationLayers,1
;   supportType,0
;   supportGridSpacing,4
;   maxOverhangAngle,45
;   supportAngles,0
;   temperatureName,Shared Heater,Heated Bed
;   temperatureNumber,0,0
;   temperatureSetpointCount,7,1
;   temperatureSetpointLayers,1,20,40,60,80,100,120,1
;   temperatureSetpointTemperatures,230,225,220,215,210,205,200,75
;   temperatureStabilizeAtStartup,1,0
;   temperatureHeatedBed,0,1
;   fanLayers,1,2
;   fanSpeeds,0,100
;   blipFanToFullPower,0
;   adjustSpeedForCooling,1
;   minSpeedLayerTime,15
;   minCoolingSpeedSlowdown,20
;   increaseFanForCooling,0
;   minFanLayerTime,45
;   maxCoolingFanSpeed,100
;   increaseFanForBridging,0
;   bridgingFanSpeed,100
;   use5D,1
;   relativeEdistances,0
;   allowEaxisZeroing,1
;   independentExtruderAxes,0
;   includeM10123,0
;   stickySupport,1
;   applyToolheadOffsets,0
;   gcodeXoffset,0
;   gcodeYoffset,0
;   gcodeZoffset,0
;   overrideMachineDefinition,1
;   machineTypeOverride,0
;   strokeXoverride,220
;   strokeYoverride,220
;   strokeZoverride,260
;   originOffsetXoverride,0
;   originOffsetYoverride,0
;   originOffsetZoverride,0
;   homeXdirOverride,-1
;   homeYdirOverride,-1
;   homeZdirOverride,-1
;   flipXoverride,1
;   flipYoverride,-1
;   flipZoverride,1
;   toolheadOffsets,0,0|0,0|0,0|0,0|0,0|0,0
;   overrideFirmwareConfiguration,1
;   firmwareTypeOverride,RepRap (Marlin/Repetier/Sprinter)
;   GPXconfigOverride,r2
;   baudRateOverride,250000
;   overridePrinterModels,1
;   printerModelsOverride
;   startingGcode,M140 S[bed0_temperature],G28 ; home all axes,G29,M109 S[extruder0_temperature],M205 X10 Y10 ; set XY jerk to 10,M163 S0 P0.0,M163 S1 P1.0,M164 S1 ; set T1 mixing ratio to full left,T1 ; select extruder,G1 X15 Y10 Z0.3 F3000 ; avoid binder clips,G1 X195 E15 F500 ; prime line,G1 X205 F100 ; slow wipe
;   layerChangeGcode,
;   retractionGcode,
;   toolChangeGcode,G92 E0 ; zero extruded length,G1 E-[toolchange_retract_distance] F[toolchange_retract_speed] ; retract,G92 E0 ; zero extruded length,G1 X[next_position_x] Y[next_position_y] F[travel_speed] ; move to ooze shield or prime pillar,G1 E[toolchange_prime_distance] F[toolchange_retract_speed] ; unretract,G92 E0 ; zero extruded length,T[new_tool] ; perform toolchange
;   endingGcode,G91 ; use relative coordinates for jogging,G1 Z50 F1800 ; raise Z by 50mm at 1800 mm/min,G90 ; switch back to absolute coordinates,M104 S0 ; turn off extruder,M140 S0 ; turn off bed,M84 ; disable motors,
;   exportFileFormat,gcode
;   celebration,0
;   celebrationSong,Random Song
;   postProcessing,
;   defaultSpeed,3000
;   outlineUnderspeed,0.5
;   solidInfillUnderspeed,0.8
;   supportUnderspeed,0.8
;   rapidXYspeed,4800
;   rapidZspeed,1002
;   minBridgingArea,50
;   bridgingExtraInflation,0
;   bridgingExtrusionMultiplier,1
;   bridgingSpeedMultiplier,1
;   useFixedBridgingAngle,0
;   fixedBridgingAngle,0
;   applyBridgingToPerimeters,0
;   filamentDiameters,1.75|1.75|1.75|1.75|1.75|1.75
;   filamentPricesPerKg,46|46|46|46|46|46
;   filamentDensities,1.25|1.25|1.25|1.25|1.25|1.25
;   useMinPrintHeight,0
;   minPrintHeight,0
;   useMaxPrintHeight,0
;   maxPrintHeight,0
;   useDiaphragm,0
;   diaphragmLayerInterval,20
;   robustSlicing,1
;   mergeAllIntoSolid,0
;   onlyRetractWhenCrossingOutline,1
;   retractBetweenLayers,1
;   useRetractionMinTravel,0
;   retractionMinTravel,3
;   retractWhileWiping,0
;   onlyWipeOutlines,1
;   avoidCrossingOutline,0
;   maxMovementDetourFactor,3
;   toolChangeRetractionDistance,8
;   toolChangeExtraRestartDistance,0
;   toolChangeRetractionSpeed,1800
;   externalThinWallType,0
;   internalThinWallType,2
;   thinWallAllowedOverlapPercentage,10
;   singleExtrusionMinLength,1
;   singleExtrusionMinPrintingWidthPercentage,50
;   singleExtrusionMaxPrintingWidthPercentage,200
;   singleExtrusionEndpointExtension,0.2
;   horizontalSizeCompensation,0
G90
M82
M106 S0
M140 S75
G28 ; home all axes
G29
M109 S230
M205 X10 Y10 ; set XY jerk to 10
M163 S0 P0.0
M163 S1 P1.0
M164 S1 ; set T1 mixing ratio to full left
T1 ; select extruder
G1 X15 Y10 Z0.3 F3000 ; avoid binder clips
G1 X195 E15 F500 ; prime line
G1 X205 F100 ; slow wipe
; process Process1
; layer 1, Z = 0.250
G92 E0 ; zero extruded length
G1 E-8.0000 F1800 ; retract
G92 E0 ; zero extruded length
G1 X90.547 Y97.993 F4800 ; move to ooze shield or prime pillar
G1 E8.0000 F1800 ; unretract
G92 E0 ; zero extruded length
T1 ; perform toolchange
G92 E0.0000
G1 E-6.0000 F1800
; feature skirt
; tool H0.250 W0.600
G1 Z0.250 F1002
G1 X90.547 Y97.993 F4800
G1 E0.0000 F1800
G92 E0.0000
G1 X94.453 Y97.993 E0.2436 F1200
G1 X95.800 Y99.341 E0.3624
G1 X95.795 Y111.246 E1.1049
G1 X94.448 Y112.593 E1.2237
G1 X90.547 Y112.593 E1.4669
G1 X89.200 Y111.245 E1.5857
G1 X89.200 Y99.340 E2.3282
G1 X90.547 Y97.993 E2.4470
G92 E0.0000
G1 E-6.0000 F1800
G1 X106.200 Y99.340 F4800
G1 E0.0000 F1800
G92 E0.0000
G1 X107.547 Y97.993 E0.1188 F1200
G1 X124.578 Y97.993 E1.1809
G1 X125.925 Y99.340 E1.2997
G1 X125.925 Y113.157 E2.1614
G1 X125.645 Y113.923 E2.2123
G1 X118.748 Y122.080 E2.8784
G1 X117.827 Y122.507 E2.9417
G1 X117.082 Y122.507 E2.9882
G1 X116.857 Y122.485 E3.0023
G1 X115.389 Y122.193 E3.0956
G1 X115.244 Y122.154 E3.1050
G1 X113.863 Y121.685 E3.1960
G1 X113.723 Y121.628 E3.2053
G1 X112.415 Y120.983 E3.2963
G1 X112.285 Y120.907 E3.3057
G1 X111.072 Y120.097 E3.3967
G1 X110.952 Y120.005 E3.4061
G1 X109.856 Y119.043 E3.4970
G1 X109.749 Y118.937 E3.5064
G1 X108.788 Y117.840 E3.5974
G1 X108.696 Y117.721 E3.6068
G1 X107.886 Y116.508 E3.6977
G1 X107.810 Y116.378 E3.7071
G1 X107.165 Y115.069 E3.7981
G1 X107.107 Y114.930 E3.8075
G1 X106.639 Y113.549 E3.8984
G1 X106.600 Y113.404 E3.9078
G1 X106.315 Y111.973 E3.9988
G1 X106.295 Y111.824 E4.0082
G1 X106.202 Y110.406 E4.0968
G1 X106.200 Y110.330 E4.1015
G1 X106.200 Y99.340 E4.7869
G92 E0.0000
G1 E-6.0000 F1800
; feature outer perimeter
G1 X93.200 Y100.593 F4800
G1 E0.0000 F1800
G92 E0.0000
G1 X93.196 Y109.993 E0.5862 F600
G1 X91.800 Y109.993 E0.6732
G1 X91.800 Y100.593 E1.2595
G1 X93.200 Y100.593 E1.3468
; feature gap fill
; tool H0.250 W0.480
G1 X92.627 Y100.773 F4800
G92 E0.0000
G1 X93.020 Y101.165 E0.0277 F1200
G1 X93.019 Y101.844 E0.0616
G1 X91.980 Y100.805 E0.1349
G1 X91.980 Y101.484 E0.1688
G1 X93.019 Y102.522 E0.2421
G1 X93.019 Y103.201 E0.2759
G1 X91.980 Y102.162 E0.3492
G1 X91.980 Y102.841 E0.3831
G1 X93.018 Y103.880 E0.4563
G1 X93.018 Y104.558 E0.4902
G1 X91.980 Y103.520 E0.5634
G1 X91.980 Y104.199 E0.5973
G1 X93.018 Y105.237 E0.6705
G1 X93.017 Y105.915 E0.7044
G1 X91.980 Y104.878 E0.7775
G1 X91.980 Y105.556 E0.8114
G1 X93.017 Y106.594 E0.8846
G1 X93.017 Y107.272 E0.9184
G1 X91.980 Y106.235 E0.9916
G1 X91.980 Y106.914 E1.0255
G1 X93.017 Y107.951 E1.0986
G1 X93.016 Y108.629 E1.1324
G1 X91.980 Y107.593 E1.2056
G1 X91.980 Y108.272 E1.2394
G1 X93.016 Y109.308 E1.3125
G1 X93.016 Y109.813 E1.3377
G1 X92.842 Y109.813 E1.3464
G1 X91.980 Y108.951 E1.4072
G1 X91.980 Y109.629 E1.4411
G1 X92.163 Y109.813 E1.4540
G92 E0.0000
G1 E-6.0000 F1800
; feature inner perimeter
; tool H0.250 W0.600
G1 X109.400 Y110.263 F4800
G1 E0.0000 F1800
G92 E0.0000
G1 X109.400 Y101.193 E0.5657 F900
G1 X122.725 Y101.193 E1.3966
G1 X122.725 Y112.420 E2.0968
G1 X116.957 Y119.242 E2.6539
G1 X116.145 Y119.081 E2.7056
G1 X115.018 Y118.698 E2.7798
G1 X113.951 Y118.172 E2.8540
G1 X112.961 Y117.511 E2.9282
G1 X112.067 Y116.726 E3.0024
G1 X111.282 Y115.831 E3.0766
G1 X110.621 Y114.842 E3.1509
G1 X110.094 Y113.774 E3.2251
G1 X109.712 Y112.648 E3.2993
G1 X109.480 Y111.480 E3.3735
G1 X109.400 Y110.263 E3.4496
; feature outer perimeter
G1 X108.800 Y110.283 F4800
G92 E0.0000
G1 X108.800 Y100.593 E0.6043 F600
G1 X123.325 Y100.593 E1.5101
G1 X123.325 Y112.640 E2.2614
G1 X117.187 Y119.900 E2.8543
G1 X115.990 Y119.662 E2.9304
G1 X114.788 Y119.254 E3.0095
G1 X113.650 Y118.693 E3.0887
G1 X112.595 Y117.988 E3.1678
G1 X111.642 Y117.151 E3.2469
G1 X110.805 Y116.197 E3.3260
G1 X110.100 Y115.142 E3.4052
G1 X109.539 Y114.005 E3.4843
G1 X109.131 Y112.803 E3.5634
G1 X108.884 Y111.559 E3.6425
G1 X108.800 Y110.283 E3.7223
; feature solid layer
G1 X111.691 Y115.933 F4800
G92 E0.0000
G1 X112.860 Y117.102 E0.1031 F960
G1 X113.108 Y117.320 E0.1237
G1 X114.071 Y117.964 E0.1959
G1 X115.054 Y118.448 E0.2643
G1 X110.344 Y113.738 E0.6797
G1 X110.317 Y113.682 E0.6836
G1 X109.944 Y112.585 E0.7559
G1 X109.921 Y112.466 E0.7634
G1 X116.327 Y118.872 E1.3284
G1 X116.865 Y118.979 E1.3626
G1 X117.056 Y118.753 E1.3811
G1 X109.716 Y111.413 E2.0285
G1 X109.656 Y110.505 E2.0852
G1 X117.445 Y118.293 E2.7721
G1 X117.834 Y117.834 E2.8097
G1 X109.640 Y109.640 E3.5323
G1 X109.640 Y108.791 E3.5852
G1 X118.222 Y117.374 E4.3422
G1 X118.611 Y116.914 E4.3797
G1 X109.640 Y107.943 E5.1709
G1 X109.640 Y107.094 E5.2238
G1 X119.000 Y116.454 E6.0493
G1 X119.389 Y115.995 E6.0869
G1 X109.640 Y106.246 E6.9467
G1 X109.640 Y105.397 E6.9996
G1 X119.777 Y115.535 E7.8936
G1 X120.166 Y115.075 E7.9312
G1 X109.640 Y104.549 E8.8595
G1 X109.640 Y103.700 E8.9124
G1 X120.555 Y114.615 E9.8751
G1 X120.944 Y114.155 E9.9126
G1 X109.640 Y102.852 E10.9095
G1 X109.640 Y102.003 E10.9625
G1 X121.332 Y113.696 E11.9937
G1 X121.721 Y113.236 E12.0312
G1 X109.918 Y101.433 E13.0722
G1 X110.767 Y101.433 E13.1251
G1 X122.110 Y112.776 E14.1255
G1 X122.485 Y112.332 E14.1617
G1 X122.485 Y112.303 E14.1636
G1 X111.615 Y101.433 E15.1222
G1 X112.464 Y101.433 E15.1752
G1 X122.485 Y111.454 E16.0590
G1 X122.485 Y110.606 E16.1119
G1 X113.312 Y101.433 E16.9209
G1 X114.161 Y101.433 E16.9738
G1 X122.485 Y109.757 E17.7080
G1 X122.485 Y108.909 E17.7609
G1 X115.009 Y101.433 E18.4202
G1 X115.858 Y101.433 E18.4731
G1 X122.485 Y108.060 E19.0576
G1 X122.485 Y107.211 E19.1105
G1 X116.706 Y101.433 E19.6202
G1 X117.555 Y101.433 E19.6731
G1 X122.485 Y106.363 E20.1079
G1 X122.485 Y105.514 E20.1608
G1 X118.403 Y101.433 E20.5208
G1 X119.252 Y101.433 E20.5737
G1 X122.485 Y104.666 E20.8589
G1 X122.485 Y103.817 E20.9118
G1 X120.100 Y101.433 E21.1221
G1 X120.949 Y101.433 E21.1750
G1 X122.485 Y102.969 E21.3105
G1 X122.485 Y102.120 E21.3634
G1 X121.797 Y101.433 E21.4240
G92 E0.0000
G1 E-6.0000 F1800
; layer 2, Z = 0.500
M106 S255
; feature inner perimeter
; tool H0.250 W0.480
G1 Z0.500 F1002
G1 X123.155 Y101.013 F4800
G1 E0.0000 F1800
G92 E0.0000
G1 X123.155 Y112.486 E0.5724 F2250
G1 X117.240 Y119.482 E1.0295
G1 X116.099 Y119.255 E1.0875
G1 X114.949 Y118.865 E1.1481
G1 X113.861 Y118.328 E1.2086
G1 X112.852 Y117.654 E1.2692
G1 X111.939 Y116.854 E1.3297
G1 X111.139 Y115.941 E1.3903
G1 X110.465 Y114.932 E1.4508
G1 X109.928 Y113.844 E1.5114
G1 X109.538 Y112.694 E1.5719
G1 X109.301 Y111.504 E1.6325
G1 X109.220 Y110.269 E1.6942
G1 X109.220 Y101.013 E2.1560
G1 X123.155 Y101.013 E2.8512
; feature outer perimeter
G1 X123.635 Y100.533 F4800
G92 E0.0000
G1 X123.635 Y112.662 E0.6051 F1500
G1 X117.458 Y119.967 E1.0824
G1 X117.218 Y119.967 E1.0944
G1 X115.974 Y119.720 E1.1577
G1 X114.765 Y119.309 E1.2214
G1 X113.620 Y118.745 E1.2850
G1 X112.559 Y118.035 E1.3487
G1 X111.599 Y117.194 E1.4124
G1 X110.757 Y116.234 E1.4761
G1 X110.048 Y115.173 E1.5398
G1 X109.483 Y114.028 E1.6035
G1 X109.073 Y112.819 E1.6672
G1 X108.824 Y111.567 E1.7309
G1 X108.740 Y110.285 E1.7950
G1 X108.740 Y100.533 E2.2815
G1 X123.635 Y100.533 E3.0246
; feature solid layer
G1 X109.412 Y101.763 F4800
G92 E0.0000
G1 X109.971 Y101.205 E0.0394 F2400
G1 X110.649 Y101.205 E0.0733
G1 X109.412 Y102.442 E0.1606
G1 X109.412 Y103.121 E0.1944
G1 X111.328 Y101.205 E0.3296
G1 X112.007 Y101.205 E0.3635
G1 X109.412 Y103.800 E0.5466
G1 X109.412 Y104.479 E0.5805
G1 X112.686 Y101.205 E0.8115
G1 X113.365 Y101.205 E0.8453
G1 X109.412 Y105.157 E1.1242
G1 X109.412 Y105.836 E1.1581
G1 X114.044 Y101.205 E1.4849
G1 X114.722 Y101.205 E1.5187
G1 X109.412 Y106.515 E1.8934
G1 X109.412 Y107.194 E1.9273
G1 X115.401 Y101.205 E2.3498
G1 X116.080 Y101.205 E2.3837
G1 X109.412 Y107.873 E2.8542
G1 X109.412 Y108.552 E2.8880
G1 X116.759 Y101.205 E3.4064
G1 X117.438 Y101.205 E3.4402
G1 X109.412 Y109.230 E4.0065
G1 X109.412 Y109.909 E4.0404
G1 X118.116 Y101.205 E4.6545
G1 X118.795 Y101.205 E4.6884
G1 X109.432 Y110.568 E5.3490
G1 X109.474 Y111.205 E5.3809
G1 X119.474 Y101.205 E6.0864
G1 X120.153 Y101.205 E6.1203
G1 X109.556 Y111.802 E6.8680
G1 X109.669 Y112.368 E6.8968
G1 X120.832 Y101.205 E7.6844
G1 X121.511 Y101.205 E7.7183
G1 X109.812 Y112.904 E8.5437
G1 X109.984 Y113.411 E8.5704
G1 X122.189 Y101.205 E9.4316
G1 X122.868 Y101.205 E9.4654
G1 X110.171 Y113.902 E10.3613
G1 X110.395 Y114.357 E10.3866
G1 X122.963 Y101.789 E11.2733
G1 X122.963 Y102.468 E11.3072
G1 X110.619 Y114.811 E12.1781
G1 X110.631 Y114.836 E12.1795
G1 X110.889 Y115.221 E12.2026
G1 X122.963 Y103.146 E13.0545
G1 X122.963 Y103.825 E13.0884
G1 X111.160 Y115.628 E13.9211
G1 X111.292 Y115.824 E13.9329
G1 X111.456 Y116.011 E13.9453
G1 X122.963 Y104.504 E14.7572
G1 X122.963 Y105.183 E14.7911
G1 X111.773 Y116.373 E15.5806
G1 X112.075 Y116.718 E15.6035
G1 X112.092 Y116.733 E15.6046
G1 X122.963 Y105.862 E16.3716
G1 X122.963 Y106.541 E16.4054
G1 X112.454 Y117.050 E17.1469
