; G-Code generated by Simplify3D(R) Version 4.1.2
; Dec 13, 2020 at 4:11:16 PM
; Settings Summary
;   processName,Process1
;   applyToModels,scad_chess_rook,scad_chess_rook(2)
;   profileName,PLA Left Large - Geeetech A10M
;   profileVersion,2020-05-07 01:02:16
;   baseProfile,Geeetech A10M
;   printMaterial,PLA
;   printQuality,High
;   printExtruders,Left Extruder Only
;   extruderName,Right Extruder,Left Extruder,Mix Extruder
;   extruderToolheadNumber,0,1,2
;   extruderDiameter,0.4,0.4,0.4
;   extruderAutoWidth,0,0,0
;   extruderWidth,0.4,0.4,0.6
;   extrusionMultiplier,1,1,1
;   extruderUseRetract,1,1,1
;   extruderRetractionDistance,6,6,8
;   extruderExtraRestartDistance,0,0,0
;   extruderRetractionZLift,0,0,0
;   extruderRetractionSpeed,1800,1800,1800
;   extruderUseCoasting,0,0,1
;   extruderCoastingDistance,0.2,0.2,0.2
;   extruderUseWipe,0,0,1
;   extruderWipeDistance,5,5,5
;   primaryExtruder,1
;   layerHeight,0.3
;   topSolidLayers,2
;   bottomSolidLayers,2
;   perimeterOutlines,2
;   printPerimetersInsideOut,1
;   startPointOption,2
;   startPointOriginX,0
;   startPointOriginY,0
;   sequentialIslands,0
;   spiralVaseMode,0
;   firstLayerHeightPercentage,100
;   firstLayerWidthPercentage,125
;   firstLayerUnderspeed,0.4
;   useRaft,0
;   raftExtruder,1
;   raftTopLayers,3
;   raftBaseLayers,2
;   raftOffset,0.6
;   raftSeparationDistance,0.14
;   raftTopInfill,100
;   aboveRaftSpeedMultiplier,0.3
;   useSkirt,1
;   skirtExtruder,1
;   skirtLayers,1
;   skirtOutlines,1
;   skirtOffset,2
;   usePrimePillar,0
;   primePillarExtruder,999
;   primePillarWidth,15
;   primePillarLocation,7
;   primePillarSpeedMultiplier,1
;   useOozeShield,0
;   oozeShieldExtruder,999
;   oozeShieldOffset,2
;   oozeShieldOutlines,1
;   oozeShieldSidewallShape,1
;   oozeShieldSidewallAngle,30
;   oozeShieldSpeedMultiplier,1
;   infillExtruder,1
;   internalInfillPattern,Fast Honeycomb
;   externalInfillPattern,Rectilinear
;   infillPercentage,15
;   outlineOverlapPercentage,60
;   infillExtrusionWidthPercentage,100
;   minInfillLength,5
;   infillLayerInterval,1
;   internalInfillAngles,0
;   overlapInternalInfillAngles,0
;   externalInfillAngles,45,-45
;   generateSupport,1
;   supportExtruder,1
;   supportInfillPercentage,40
;   supportExtraInflation,0
;   supportBaseLayers,0
;   denseSupportExtruder,1
;   denseSupportLayers,0
;   denseSupportInfillPercentage,70
;   supportLayerInterval,1
;   supportHorizontalPartOffset,0.3
;   supportUpperSeparationLayers,1
;   supportLowerSeparationLayers,1
;   supportType,0
;   supportGridSpacing,4
;   maxOverhangAngle,45
;   supportAngles,0
;   temperatureName,Shared Heater,Heated Bed
;   temperatureNumber,0,0
;   temperatureSetpointCount,2,1
;   temperatureSetpointLayers,1,2,1
;   temperatureSetpointTemperatures,210,205,75
;   temperatureStabilizeAtStartup,1,0
;   temperatureHeatedBed,0,1
;   fanLayers,1,2
;   fanSpeeds,0,100
;   blipFanToFullPower,0
;   adjustSpeedForCooling,1
;   minSpeedLayerTime,15
;   minCoolingSpeedSlowdown,20
;   increaseFanForCooling,0
;   minFanLayerTime,45
;   maxCoolingFanSpeed,100
;   increaseFanForBridging,0
;   bridgingFanSpeed,100
;   use5D,1
;   relativeEdistances,0
;   allowEaxisZeroing,1
;   independentExtruderAxes,0
;   includeM10123,0
;   stickySupport,1
;   applyToolheadOffsets,0
;   gcodeXoffset,0
;   gcodeYoffset,0
;   gcodeZoffset,0
;   overrideMachineDefinition,1
;   machineTypeOverride,0
;   strokeXoverride,220
;   strokeYoverride,220
;   strokeZoverride,260
;   originOffsetXoverride,0
;   originOffsetYoverride,0
;   originOffsetZoverride,0
;   homeXdirOverride,-1
;   homeYdirOverride,-1
;   homeZdirOverride,-1
;   flipXoverride,1
;   flipYoverride,-1
;   flipZoverride,1
;   toolheadOffsets,0,0|0,0|0,0|0,0|0,0|0,0
;   overrideFirmwareConfiguration,1
;   firmwareTypeOverride,RepRap (Marlin/Repetier/Sprinter)
;   GPXconfigOverride,r2
;   baudRateOverride,250000
;   overridePrinterModels,1
;   printerModelsOverride
;   startingGcode,M140 S[bed0_temperature],G28 ; home all axes,G29,M109 S[extruder0_temperature],M205 X10 Y10 ; set XY jerk to 10,M163 S0 P0.0,M163 S1 P1.0,M164 S1 ; set T1 mixing ratio to full left,T1 ; select extruder,G1 X15 Y10 Z0.3 F3000 ; avoid binder clips,G1 X195 E15 F500 ; prime line,G1 X205 F100 ; slow wipe
;   layerChangeGcode,
;   retractionGcode,
;   toolChangeGcode,G92 E0 ; zero extruded length,G1 E-[toolchange_retract_distance] F[toolchange_retract_speed] ; retract,G92 E0 ; zero extruded length,G1 X[next_position_x] Y[next_position_y] F[travel_speed] ; move to ooze shield or prime pillar,G1 E[toolchange_prime_distance] F[toolchange_retract_speed] ; unretract,G92 E0 ; zero extruded length,T[new_tool] ; perform toolchange
;   endingGcode,G91 ; use relative coordinates for jogging,G1 Z50 F1800 ; raise Z by 50mm at 1800 mm/min,G90 ; switch back to absolute coordinates,M104 S0 ; turn off extruder,M140 S0 ; turn off bed,M84 ; disable motors,
;   exportFileFormat,gcode
;   celebration,0
;   celebrationSong,Random Song
;   postProcessing,
;   defaultSpeed,3000
;   outlineUnderspeed,0.5
;   solidInfillUnderspeed,0.8
;   supportUnderspeed,0.8
;   rapidXYspeed,4800
;   rapidZspeed,1002
;   minBridgingArea,50
;   bridgingExtraInflation,0
;   bridgingExtrusionMultiplier,1
;   bridgingSpeedMultiplier,1
;   useFixedBridgingAngle,0
;   fixedBridgingAngle,0
;   applyBridgingToPerimeters,0
;   filamentDiameters,1.75|1.75|1.75|1.75|1.75|1.75
;   filamentPricesPerKg,46|46|46|46|46|46
;   filamentDensities,1.25|1.25|1.25|1.25|1.25|1.25
;   useMinPrintHeight,0
;   minPrintHeight,0
;   useMaxPrintHeight,0
;   maxPrintHeight,0
;   useDiaphragm,0
;   diaphragmLayerInterval,20
;   robustSlicing,1
;   mergeAllIntoSolid,0
;   onlyRetractWhenCrossingOutline,1
;   retractBetweenLayers,1
;   useRetractionMinTravel,0
;   retractionMinTravel,3
;   retractWhileWiping,0
;   onlyWipeOutlines,1
;   avoidCrossingOutline,0
;   maxMovementDetourFactor,3
;   toolChangeRetractionDistance,8
;   toolChangeExtraRestartDistance,0
;   toolChangeRetractionSpeed,1800
;   externalThinWallType,0
;   internalThinWallType,2
;   thinWallAllowedOverlapPercentage,10
;   singleExtrusionMinLength,1
;   singleExtrusionMinPrintingWidthPercentage,50
;   singleExtrusionMaxPrintingWidthPercentage,200
;   singleExtrusionEndpointExtension,0.2
;   horizontalSizeCompensation,0
G90
M82
M106 S0
M140 S75
G28 ; home all axes
G29
M109 S210
M205 X10 Y10 ; set XY jerk to 10
M163 S0 P0.0
M163 S1 P1.0
M164 S1 ; set T1 mixing ratio to full left
T1 ; select extruder
G1 X15 Y10 Z0.3 F3000 ; avoid binder clips
G1 X195 E15 F500 ; prime line
G1 X205 F100 ; slow wipe
; process Process1
; layer 1, Z = 0.300
G92 E0 ; zero extruded length
G1 E-8.0000 F1800 ; retract
G92 E0 ; zero extruded length
G1 X97.562 Y83.336 F4800 ; move to ooze shield or prime pillar
G1 E8.0000 F1800 ; unretract
G92 E0 ; zero extruded length
T1 ; perform toolchange
G92 E0.0000
G1 E-6.0000 F1800
; feature skirt
; tool H0.300 W0.500
G1 Z0.300 F1002
G1 X97.562 Y83.336 F4800
G1 E0.0000 F1800
G92 E0.0000
G1 X98.552 Y82.244 E0.0919 F1200
G1 X98.630 Y82.166 E0.0988
G1 X99.721 Y81.177 E0.1906
G1 X99.807 Y81.107 E0.1975
G1 X100.990 Y80.229 E0.2894
G1 X101.082 Y80.168 E0.2963
G1 X102.345 Y79.410 E0.3881
G1 X102.443 Y79.358 E0.3950
G1 X103.774 Y78.729 E0.4869
G1 X103.876 Y78.686 E0.4938
G1 X105.263 Y78.190 E0.5856
G1 X105.369 Y78.158 E0.5925
G1 X106.798 Y77.800 E0.6844
G1 X106.906 Y77.778 E0.6913
G1 X108.364 Y77.562 E0.7832
G1 X108.473 Y77.552 E0.7901
G1 X109.945 Y77.479 E0.8819
G1 X110.055 Y77.479 E0.8888
G1 X111.527 Y77.552 E0.9807
G1 X111.636 Y77.562 E0.9876
G1 X113.094 Y77.778 E1.0794
G1 X113.202 Y77.800 E1.0863
G1 X114.631 Y78.158 E1.1782
G1 X114.737 Y78.190 E1.1851
G1 X116.124 Y78.686 E1.2770
G1 X116.226 Y78.729 E1.2838
G1 X117.557 Y79.358 E1.3757
G1 X117.655 Y79.410 E1.3826
G1 X118.918 Y80.168 E1.4745
G1 X119.010 Y80.229 E1.4813
G1 X120.193 Y81.107 E1.5732
G1 X120.279 Y81.177 E1.5801
G1 X121.370 Y82.166 E1.6720
G1 X121.448 Y82.244 E1.6789
G1 X122.438 Y83.336 E1.7707
G1 X122.508 Y83.421 E1.7776
G1 X123.385 Y84.604 E1.8695
G1 X123.447 Y84.696 E1.8764
G1 X124.204 Y85.960 E1.9682
G1 X124.256 Y86.057 E1.9751
G1 X124.886 Y87.389 E2.0670
G1 X124.928 Y87.491 E2.0739
G1 X125.425 Y88.878 E2.1658
G1 X125.457 Y88.984 E2.1726
G1 X125.815 Y90.413 E2.2645
G1 X125.836 Y90.521 E2.2714
G1 X126.052 Y91.978 E2.3633
G1 X126.063 Y92.088 E2.3702
G1 X126.135 Y93.559 E2.4620
G1 X126.135 Y93.670 E2.4689
G1 X126.063 Y95.141 E2.5608
G1 X126.052 Y95.251 E2.5677
G1 X125.836 Y96.708 E2.6595
G1 X125.815 Y96.817 E2.6664
G1 X125.457 Y98.246 E2.7583
G1 X125.425 Y98.351 E2.7652
G1 X124.928 Y99.738 E2.8571
G1 X124.886 Y99.840 E2.8639
G1 X124.256 Y101.172 E2.9558
G1 X124.204 Y101.269 E2.9627
G1 X123.447 Y102.533 E3.0546
G1 X123.385 Y102.625 E3.0615
G1 X122.508 Y103.808 E3.1533
G1 X122.438 Y103.894 E3.1602
G1 X121.448 Y104.985 E3.2521
G1 X121.370 Y105.063 E3.2590
G1 X120.279 Y106.052 E3.3508
G1 X120.193 Y106.122 E3.3577
G1 X119.010 Y107.000 E3.4496
G1 X118.918 Y107.061 E3.4565
G1 X117.655 Y107.819 E3.5484
G1 X117.557 Y107.871 E3.5552
G1 X116.226 Y108.501 E3.6471
G1 X116.124 Y108.543 E3.6540
G1 X114.737 Y109.039 E3.7459
G1 X114.631 Y109.071 E3.7528
G1 X113.202 Y109.429 E3.8446
G1 X113.094 Y109.451 E3.8515
G1 X111.636 Y109.667 E3.9434
G1 X111.527 Y109.678 E3.9503
G1 X110.055 Y109.750 E4.0421
G1 X109.945 Y109.750 E4.0490
G1 X108.473 Y109.678 E4.1409
G1 X108.364 Y109.667 E4.1478
G1 X106.906 Y109.451 E4.2396
G1 X106.798 Y109.429 E4.2465
G1 X105.369 Y109.071 E4.3384
G1 X105.263 Y109.039 E4.3453
G1 X103.876 Y108.543 E4.4372
G1 X103.774 Y108.501 E4.4441
G1 X102.443 Y107.871 E4.5359
G1 X102.345 Y107.819 E4.5428
G1 X101.082 Y107.061 E4.6347
G1 X100.990 Y107.000 E4.6416
G1 X99.807 Y106.122 E4.7334
G1 X99.721 Y106.052 E4.7403
G1 X98.630 Y105.063 E4.8322
G1 X98.552 Y104.985 E4.8391
G1 X97.562 Y103.894 E4.9309
G1 X97.492 Y103.808 E4.9378
G1 X96.615 Y102.625 E5.0297
G1 X96.553 Y102.533 E5.0366
G1 X95.796 Y101.269 E5.1285
G1 X95.744 Y101.172 E5.1354
G1 X95.114 Y99.840 E5.2272
G1 X95.072 Y99.738 E5.2341
G1 X94.575 Y98.351 E5.3260
G1 X94.543 Y98.246 E5.3329
G1 X94.185 Y96.817 E5.4247
G1 X94.164 Y96.708 E5.4316
G1 X93.948 Y95.251 E5.5235
G1 X93.937 Y95.141 E5.5304
G1 X93.865 Y93.670 E5.6222
G1 X93.865 Y93.559 E5.6291
G1 X93.937 Y92.088 E5.7210
G1 X93.948 Y91.978 E5.7279
G1 X94.164 Y90.521 E5.8198
G1 X94.185 Y90.413 E5.8266
G1 X94.543 Y88.984 E5.9185
G1 X94.575 Y88.878 E5.9254
G1 X95.072 Y87.491 E6.0173
G1 X95.114 Y87.389 E6.0242
G1 X95.744 Y86.057 E6.1160
G1 X95.796 Y85.960 E6.1229
G1 X96.553 Y84.696 E6.2148
G1 X96.615 Y84.604 E6.2217
G1 X97.492 Y83.421 E6.3135
G1 X97.562 Y83.336 E6.3204
G92 E0.0000
G1 E-6.0000 F1800
G1 X105.369 Y110.929 F4800
G1 E0.0000 F1800
G92 E0.0000
G1 X106.798 Y110.571 E0.0919 F1200
G1 X106.906 Y110.549 E0.0988
G1 X108.364 Y110.333 E0.1906
G1 X108.473 Y110.322 E0.1975
G1 X109.945 Y110.250 E0.2894
G1 X110.055 Y110.250 E0.2963
G1 X111.527 Y110.322 E0.3881
G1 X111.636 Y110.333 E0.3950
G1 X113.094 Y110.549 E0.4869
G1 X113.202 Y110.571 E0.4938
G1 X114.631 Y110.929 E0.5857
G1 X114.737 Y110.961 E0.5925
G1 X116.124 Y111.457 E0.6844
G1 X116.226 Y111.499 E0.6913
G1 X117.557 Y112.129 E0.7832
G1 X117.655 Y112.181 E0.7901
G1 X118.918 Y112.939 E0.8819
G1 X119.010 Y113.000 E0.8888
G1 X120.193 Y113.877 E0.9807
G1 X120.279 Y113.948 E0.9876
G1 X121.370 Y114.937 E1.0794
G1 X121.448 Y115.015 E1.0863
G1 X122.438 Y116.107 E1.1782
G1 X122.508 Y116.192 E1.1851
G1 X123.385 Y117.375 E1.2770
G1 X123.447 Y117.467 E1.2838
G1 X124.204 Y118.731 E1.3757
G1 X124.256 Y118.828 E1.3826
G1 X124.886 Y120.160 E1.4745
G1 X124.928 Y120.262 E1.4813
G1 X125.425 Y121.649 E1.5732
G1 X125.457 Y121.754 E1.5801
G1 X125.815 Y123.183 E1.6720
G1 X125.836 Y123.292 E1.6789
G1 X126.052 Y124.749 E1.7707
G1 X126.063 Y124.859 E1.7776
G1 X126.135 Y126.330 E1.8695
G1 X126.135 Y126.441 E1.8764
G1 X126.063 Y127.912 E1.9682
G1 X126.052 Y128.022 E1.9751
G1 X125.836 Y129.479 E2.0670
G1 X125.815 Y129.587 E2.0739
G1 X125.457 Y131.016 E2.1658
G1 X125.425 Y131.122 E2.1727
G1 X124.928 Y132.509 E2.2645
G1 X124.886 Y132.611 E2.2714
G1 X124.256 Y133.943 E2.3633
G1 X124.204 Y134.040 E2.3702
G1 X123.447 Y135.304 E2.4620
G1 X123.385 Y135.396 E2.4689
G1 X122.508 Y136.579 E2.5608
G1 X122.438 Y136.664 E2.5677
G1 X121.448 Y137.756 E2.6595
G1 X121.370 Y137.834 E2.6664
G1 X120.279 Y138.823 E2.7583
G1 X120.193 Y138.893 E2.7652
G1 X119.010 Y139.771 E2.8571
G1 X118.918 Y139.832 E2.8640
G1 X117.655 Y140.589 E2.9558
G1 X117.557 Y140.642 E2.9627
G1 X116.226 Y141.271 E3.0546
G1 X116.124 Y141.314 E3.0615
G1 X114.737 Y141.810 E3.1533
G1 X114.631 Y141.842 E3.1602
G1 X113.202 Y142.200 E3.2521
G1 X113.094 Y142.222 E3.2590
G1 X111.636 Y142.438 E3.3508
G1 X111.527 Y142.448 E3.3577
G1 X110.055 Y142.521 E3.4496
G1 X109.945 Y142.521 E3.4565
G1 X108.473 Y142.448 E3.5484
G1 X108.364 Y142.438 E3.5552
G1 X106.906 Y142.222 E3.6471
G1 X106.798 Y142.200 E3.6540
G1 X105.369 Y141.842 E3.7459
G1 X105.263 Y141.810 E3.7528
G1 X103.876 Y141.314 E3.8446
G1 X103.774 Y141.271 E3.8515
G1 X102.443 Y140.642 E3.9434
G1 X102.345 Y140.589 E3.9503
G1 X101.082 Y139.832 E4.0421
G1 X100.990 Y139.771 E4.0490
G1 X99.807 Y138.893 E4.1409
G1 X99.721 Y138.823 E4.1478
G1 X98.630 Y137.834 E4.2397
G1 X98.552 Y137.756 E4.2465
G1 X97.562 Y136.664 E4.3384
G1 X97.492 Y136.579 E4.3453
G1 X96.615 Y135.396 E4.4372
G1 X96.553 Y135.304 E4.4441
G1 X95.796 Y134.040 E4.5359
G1 X95.744 Y133.943 E4.5428
G1 X95.114 Y132.611 E4.6347
G1 X95.072 Y132.509 E4.6416
G1 X94.575 Y131.122 E4.7334
G1 X94.543 Y131.016 E4.7403
G1 X94.185 Y129.587 E4.8322
G1 X94.164 Y129.479 E4.8391
G1 X93.948 Y128.022 E4.9310
G1 X93.937 Y127.912 E4.9378
G1 X93.865 Y126.441 E5.0297
G1 X93.865 Y126.330 E5.0366
G1 X93.937 Y124.859 E5.1285
G1 X93.948 Y124.749 E5.1353
G1 X94.164 Y123.292 E5.2272
G1 X94.185 Y123.183 E5.2341
G1 X94.543 Y121.754 E5.3260
G1 X94.575 Y121.649 E5.3329
G1 X95.072 Y120.262 E5.4247
G1 X95.114 Y120.160 E5.4316
G1 X95.744 Y118.828 E5.5235
G1 X95.796 Y118.731 E5.5304
G1 X96.553 Y117.467 E5.6222
G1 X96.615 Y117.375 E5.6291
G1 X97.492 Y116.192 E5.7210
G1 X97.562 Y116.107 E5.7279
G1 X98.552 Y115.015 E5.8198
G1 X98.630 Y114.937 E5.8266
G1 X99.721 Y113.948 E5.9185
G1 X99.807 Y113.877 E5.9254
G1 X100.990 Y113.000 E6.0173
G1 X101.082 Y112.939 E6.0242
G1 X102.345 Y112.181 E6.1160
G1 X102.443 Y112.129 E6.1229
G1 X103.774 Y111.499 E6.2148
G1 X103.876 Y111.457 E6.2217
G1 X105.263 Y110.961 E6.3135
G1 X105.369 Y110.929 E6.3204
G92 E0.0000
G1 E-6.0000 F1800
; feature inner perimeter
G1 X106.187 Y106.183 F4800
G1 E0.0000 F1800
G92 E0.0000
G1 X104.974 Y105.749 E0.0804 F900
G1 X103.808 Y105.198 E0.1608
G1 X102.703 Y104.536 E0.2411
G1 X101.667 Y103.768 E0.3215
G1 X100.713 Y102.902 E0.4019
G1 X99.847 Y101.947 E0.4823
G1 X99.079 Y100.912 E0.5627
G1 X98.416 Y99.806 E0.6431
G1 X97.865 Y98.641 E0.7234
G1 X97.431 Y97.427 E0.8038
G1 X97.118 Y96.177 E0.8842
G1 X96.929 Y94.902 E0.9646
G1 X96.866 Y93.615 E1.0450
G1 X96.929 Y92.327 E1.1254
G1 X97.118 Y91.052 E1.2057
G1 X97.431 Y89.802 E1.2861
G1 X97.865 Y88.588 E1.3665
G1 X98.416 Y87.423 E1.4469
G1 X99.079 Y86.317 E1.5273
G1 X99.847 Y85.282 E1.6077
G1 X100.713 Y84.327 E1.6880
G1 X101.667 Y83.462 E1.7684
G1 X102.703 Y82.694 E1.8488
G1 X103.808 Y82.031 E1.9292
G1 X104.974 Y81.480 E2.0096
G1 X106.187 Y81.046 E2.0900
G1 X107.438 Y80.732 E2.1703
G1 X108.713 Y80.543 E2.2507
G1 X110.000 Y80.480 E2.3311
G1 X111.287 Y80.543 E2.4115
G1 X112.562 Y80.732 E2.4919
G1 X113.813 Y81.046 E2.5723
G1 X115.026 Y81.480 E2.6526
G1 X116.192 Y82.031 E2.7330
G1 X117.297 Y82.694 E2.8134
